; generated by Slic3r 1.2.9 on 2020-03-11 at 14:34:03

; external perimeters extrusion width = 0.40mm
; perimeters extrusion width = 0.40mm
; infill extrusion width = 0.40mm
; solid infill extrusion width = 0.40mm
; top infill extrusion width = 0.40mm

M107
M83
T0
M116
G21 ; set units to millimeters
G90 ; use absolute coordinates
M83 ; use relative distances for extrusion
G1 E-4.20000 F1500.00000
G1 Z1.000 F15000.000
G1 X12.586 Y0.000 F15000.000
G1 Z0.300 F15000.000
G1 E4.20000 F1500.00000
G1 X12.586 Y11.450 E0.88240 F960.000
G1 X12.191 Y13.097 E0.13052
G1 X11.093 Y14.387 E0.13052
G1 X8.950 Y15.086 E0.17373
G1 X-8.950 Y15.086 E1.37947
G1 X-10.597 Y14.691 E0.13052
G1 X-11.887 Y13.593 E0.13052
G1 X-12.586 Y11.450 E0.17373
G1 X-12.586 Y-11.450 E1.76480
G1 X-12.191 Y-13.097 E0.13052
G1 X-11.093 Y-14.387 E0.13052
G1 X-8.950 Y-15.086 E0.17373
G1 X8.950 Y-15.086 E1.37947
G1 X10.597 Y-14.691 E0.13052
G1 X11.887 Y-13.593 E0.13052 F960.000
G1 X12.586 Y-11.450 E0.17373
G1 X12.586 Y-0.060 E0.87778
G1 E-4.20000 F1500.00000
G1 Z1.300 F15000.000
G1 X1.379 Y1.301 F15000.000
G1 Z0.300 F15000.000
G1 E4.20000 F1500.00000
G1 X1.403 Y1.499 E0.01539 F600.000
G1 X1.362 Y1.837 E0.02628
G1 X1.234 Y2.165 E0.02708
G1 X1.050 Y2.430 E0.02486
G1 X0.798 Y2.654 E0.02598
G1 X0.501 Y2.810 E0.02591
G1 X0.174 Y2.892 E0.02594
G1 X-0.175 Y2.892 E0.02689
G1 X-0.501 Y2.810 E0.02587
G1 X-0.798 Y2.654 E0.02589
G1 X-1.050 Y2.430 E0.02599
G1 X-1.242 Y2.153 E0.02601
G1 X-1.362 Y1.835 E0.02614
G1 X-1.403 Y1.500 E0.02602
G1 X-1.362 Y1.163 E0.02616
G1 X-1.242 Y0.848 E0.02598
G1 X-1.057 Y0.580 E0.02514
G1 X-0.798 Y0.346 E0.02687
G1 X-0.497 Y0.188 E0.02621
G1 X-0.166 Y0.107 E0.02625 F600.000
G1 X0.168 Y0.107 E0.02575
G1 X0.498 Y0.188 E0.02616
G1 X0.799 Y0.346 E0.02621
G1 X1.058 Y0.580 E0.02692
G1 X1.243 Y0.848 E0.02508
G1 X1.362 Y1.164 E0.02605
G1 X1.372 Y1.241 E0.00598
G1 X1.563 Y1.379 F15000.000
G1 E-4.20000 F1500.00000
G1 Z1.300 F15000.000
G1 X-7.964 Y1.028 F15000.000
G1 Z0.300 F15000.000
G1 E4.20000 F1500.00000
G1 X-7.964 Y-10.464 E0.88567 F720.000
G1 X-2.898 Y-10.464 E0.39047
G1 X-3.378 Y-9.887 E0.05789
G1 X-3.698 Y-9.342 E0.04870 F720.000
G1 X-3.869 Y-8.958 E0.03242
G1 X-4.050 Y-8.342 E0.04943
G1 X-4.128 Y-7.710 E0.04908
G1 X-4.128 Y-7.290 E0.03242
G1 X-4.050 Y-6.658 E0.04908
G1 X-3.869 Y-6.042 E0.04943
G1 X-3.698 Y-5.658 E0.03242
G1 X-3.378 Y-5.113 E0.04870
G1 X-2.959 Y-4.609 E0.05052
G1 X-2.478 Y-4.192 E0.04902
G1 X-2.130 Y-3.957 E0.03242
G1 X-1.561 Y-3.669 E0.04914
G1 X-0.950 Y-3.476 E0.04937
G1 X-0.536 Y-3.403 E0.03242
G1 X0.096 Y-3.365 E0.04877
G1 X0.748 Y-3.432 E0.05051
G1 X1.361 Y-3.598 E0.04896
G1 X1.751 Y-3.755 E0.03242
G1 X2.308 Y-4.067 E0.04920
G1 X2.809 Y-4.466 E0.04931
G1 X3.101 Y-4.769 E0.03242
G1 X3.485 Y-5.272 E0.04884
G1 X3.793 Y-5.851 E0.05050
G1 X4.001 Y-6.463 E0.04985
G1 X4.108 Y-7.030 E0.04447
G1 X4.134 Y-7.532 E0.03871
G1 X4.108 Y-7.974 E0.03413
G1 X4.001 Y-8.537 E0.04414
G1 X3.793 Y-9.149 E0.04985
G1 X3.485 Y-9.728 E0.05050
G1 X2.923 Y-10.464 E0.07141
G1 X7.964 Y-10.464 E0.38850
G1 X7.964 Y10.464 E1.61289
G1 X2.877 Y10.464 E0.39208
G1 X3.298 Y9.990 E0.04887
G1 X3.511 Y9.683 E0.02883
G1 X3.805 Y9.126 E0.04850
G1 X4.068 Y8.251 E0.07047
G1 X4.138 Y7.500 E0.05811
G1 X4.068 Y6.749 E0.05811
G1 X3.806 Y5.877 E0.07019
G1 X3.579 Y5.440 E0.03796
G1 X3.308 Y5.022 E0.03839
G1 X2.818 Y4.470 E0.05690
G1 X2.115 Y3.949 E0.06742
G1 X1.479 Y3.637 E0.05460
G1 X0.694 Y3.427 E0.06262
G1 X1.162 Y3.180 E0.04078
G1 X1.530 Y2.855 E0.03784
G1 X1.798 Y2.465 E0.03645
G1 X1.983 Y1.994 E0.03898
G1 X2.043 Y1.499 E0.03846
G1 X1.984 Y1.011 E0.03789
G1 X1.809 Y0.551 E0.03794
G1 X1.539 Y0.159 E0.03672
G1 X1.165 Y-0.179 E0.03882
G1 X0.724 Y-0.411 E0.03840
G1 X0.245 Y-0.528 E0.03804
G1 X-0.243 Y-0.528 E0.03755
G1 X-0.724 Y-0.411 E0.03816
G1 X-1.165 Y-0.180 E0.03840
G1 X-1.538 Y0.158 E0.03877
G1 X-1.809 Y0.551 E0.03680
G1 X-1.984 Y1.010 E0.03787
G1 X-2.043 Y1.500 E0.03805
G1 X-1.984 Y1.989 E0.03793
G1 X-1.809 Y2.450 E0.03804
G1 X-1.530 Y2.855 E0.03790
G1 X-1.162 Y3.181 E0.03787
G1 X-0.735 Y3.405 E0.03714
G1 X-1.626 Y3.698 E0.07226
G1 X-1.969 Y3.867 E0.02948
G1 X-2.574 Y4.260 E0.05560
G1 X-3.194 Y4.877 E0.06736
G1 X-3.598 Y5.458 E0.05460
G1 X-3.954 Y6.275 E0.06863
G1 X-4.120 Y7.146 E0.06835
G1 X-4.120 Y7.854 E0.05460
G1 X-3.954 Y8.725 E0.06835
G1 X-3.598 Y9.542 E0.06863
G1 X-3.194 Y10.123 E0.05460
G1 X-2.851 Y10.464 E0.03726
G1 X-7.964 Y10.464 E0.39406
G1 X-7.964 Y1.088 E0.72259
G1 X-8.600 Y1.088 F15000.000
G1 X-8.600 Y-11.100 E0.93928 F720.000
G1 X-1.258 Y-11.100 E0.56581
G1 X-1.188 Y-10.807 E0.02320
G1 X-1.807 Y-10.494 E0.05347 F720.000
G1 X-2.091 Y-10.302 E0.02638
G1 X-2.503 Y-9.945 E0.04206
G1 X-2.856 Y-9.520 E0.04256
G1 X-3.132 Y-9.051 E0.04195
G1 X-3.271 Y-8.738 E0.02638
G1 X-3.426 Y-8.213 E0.04218
G1 X-3.493 Y-7.671 E0.04208
G1 X-3.493 Y-7.329 E0.02638
G1 X-3.426 Y-6.787 E0.04208
G1 X-3.271 Y-6.262 E0.04218
G1 X-3.132 Y-5.949 E0.02638
G1 X-2.856 Y-5.480 E0.04195
G1 X-2.503 Y-5.055 E0.04256
G1 X-2.091 Y-4.698 E0.04206
G1 X-1.807 Y-4.506 E0.02638
G1 X-1.320 Y-4.260 E0.04209
G1 X-0.798 Y-4.095 E0.04216
G1 X-0.461 Y-4.035 E0.02638
G1 X0.083 Y-4.002 E0.04198
G1 X0.632 Y-4.059 E0.04255
G1 X1.158 Y-4.201 E0.04204
G1 X1.476 Y-4.329 E0.02638
G1 X1.953 Y-4.596 E0.04211
G1 X2.380 Y-4.937 E0.04214
G1 X2.618 Y-5.183 E0.02638
G1 X2.949 Y-5.617 E0.04200
G1 X3.208 Y-6.104 E0.04254
G1 X3.385 Y-6.625 E0.04241
G1 X3.476 Y-7.106 E0.03771
G1 X3.498 Y-7.529 E0.03267
G1 X3.475 Y-7.896 E0.02830
G1 X3.385 Y-8.375 E0.03759
G1 X3.208 Y-8.896 E0.04241
G1 X2.949 Y-9.383 E0.04254
G1 X2.618 Y-9.817 E0.04201
G1 X2.380 Y-10.063 E0.02638
G1 X1.953 Y-10.404 E0.04214
G1 X1.476 Y-10.671 E0.04211
G1 X1.177 Y-10.791 E0.02486
G1 X1.237 Y-11.100 E0.02423
G1 X8.600 Y-11.100 E0.56745
G1 X8.600 Y11.100 E1.71085
G1 X1.243 Y11.100 E0.56695
G1 X1.175 Y10.805 E0.02335
G1 X1.783 Y10.506 E0.05223
G1 X2.387 Y10.059 E0.05787
G1 X2.797 Y9.597 E0.04766
G1 X2.967 Y9.352 E0.02294
G1 X3.214 Y8.884 E0.04078
G1 X3.441 Y8.129 E0.06078
G1 X3.499 Y7.500 E0.04867
G1 X3.441 Y6.871 E0.04867
G1 X3.214 Y6.117 E0.06068
G1 X3.029 Y5.760 E0.03103
G1 X2.801 Y5.408 E0.03233
G1 X2.387 Y4.941 E0.04810
G1 X1.783 Y4.494 E0.05787
G1 X1.255 Y4.235 E0.04534
G1 X0.524 Y4.039 E0.05830
G1 X-0.231 Y4.010 E0.05826
G1 X-0.810 Y4.099 E0.04511
G1 X-1.385 Y4.288 E0.04666
G1 X-1.654 Y4.421 E0.02316
G1 X-2.173 Y4.757 E0.04761
G1 X-2.705 Y5.287 E0.05785
G1 X-3.041 Y5.770 E0.04534
G1 X-3.343 Y6.463 E0.05831
G1 X-3.485 Y7.206 E0.05825
G1 X-3.485 Y7.794 E0.04534
G1 X-3.343 Y8.537 E0.05825
G1 X-3.041 Y9.230 E0.05831
G1 X-2.705 Y9.713 E0.04534
G1 X-2.173 Y10.243 E0.05785
G1 X-1.654 Y10.579 E0.04761
G1 X-1.385 Y10.712 E0.02316
G1 X-1.181 Y10.779 E0.01653
G1 X-1.233 Y11.100 E0.02505
G1 X-8.600 Y11.100 E0.56777
G1 X-8.600 Y1.148 E0.76695
G1 X-8.254 Y0.888 F15000.000
G1 E-4.20000 F1500.00000
G1 Z1.300 F15000.000
G1 X-0.874 Y-10.998 F15000.000
G1 Z0.300 F15000.000
G1 E4.20000 F1500.00000
G1 X0.061 Y-11.048 E0.07216 F720.000
G1 X0.863 Y-11.009 E0.06183
G1 E-4.20000 F1500.00000
G1 Z1.300 F15000.000
G1 X0.866 Y11.024 F15000.000
G1 Z0.300 F15000.000
G1 E4.20000 F1500.00000
G1 X-0.196 Y11.044 E0.08185 F720.000
G1 X-0.862 Y10.997 E0.05146
G1 E-4.20000 F1500.00000
G1 Z1.300 F15000.000
G1 X4.001 Y9.479 F15000.000
G1 Z0.300 F15000.000
G1 E4.20000 F1500.00000
G1 X4.601 Y10.079 E0.06639 F960.000
G1 X5.514 Y10.079 E0.07147
G1 X4.263 Y8.828 E0.13849
G1 X4.457 Y8.109 E0.05830
G1 X6.427 Y10.079 E0.21809
G1 X7.340 Y10.079 E0.07147
G1 X4.515 Y7.254 E0.31272
G1 X4.343 Y6.169 E0.08600
G1 X7.579 Y9.405 E0.35825
G1 X7.579 Y8.492 E0.07147
G1 X1.937 Y2.850 E0.62459
G1 X2.253 Y2.253 E0.05288
G1 X7.579 Y7.579 E0.58962
G1 X7.579 Y6.666 E0.07147
G1 X2.416 Y1.503 E0.57159
G1 X2.224 Y0.398 E0.08774
G1 X7.579 Y5.753 E0.59277
G1 X7.579 Y-9.769 F15000.000
G1 X7.269 Y-10.079 E0.03428 F960.000
G1 X6.356 Y-10.079 E0.07147
G1 X7.579 Y-8.856 E0.13536
G1 X7.579 Y-7.943 E0.07147
G1 X5.443 Y-10.079 E0.23644
G1 X4.530 Y-10.079 E0.07147
G1 X7.579 Y-7.030 E0.33752
G1 X7.579 Y-6.117 E0.07147
G1 X4.061 Y-9.635 E0.38941
G1 X4.462 Y-8.321 E0.10752
G1 X7.579 Y-5.204 E0.34505
G1 X7.579 Y-4.291 E0.07147
G1 X4.505 Y-7.365 E0.34033
G1 X4.390 Y-6.567 E0.06314
G1 X7.579 Y-3.378 E0.35302
G1 X7.579 Y-2.465 E0.07147
G1 X4.170 Y-5.874 E0.37738
G1 X3.865 Y-5.266 E0.05324
G1 X7.579 Y-1.552 E0.41118
G1 X7.579 Y-0.639 E0.07147
G1 X3.488 Y-4.730 E0.45289
G1 X3.056 Y-4.248 E0.05062
G1 X7.579 Y0.274 E0.50066
G1 X7.579 Y1.188 E0.07147
G1 X2.553 Y-3.839 E0.55645
G1 X1.981 Y-3.498 E0.05213
G1 X7.579 Y2.101 E0.61976
G1 X7.579 Y3.014 E0.07147
G1 X1.341 Y-3.224 E0.69058
G1 X0.609 Y-3.043 E0.05901
G1 X7.579 Y3.927 E0.77159
G1 X7.579 Y4.840 E0.07147
G1 X-0.252 Y-2.991 E0.86693
G1 X-1.310 Y-3.136 E0.08360
G1 X1.077 Y-0.749 E0.26425
G1 X-0.001 Y-0.914 E0.08533
G1 X-7.579 Y-8.492 E0.83894
G1 X-7.579 Y-9.405 E0.07147
G1 X-4.358 Y-6.184 E0.35658
G1 X-4.514 Y-7.253 E0.08454
G1 X-7.340 Y-10.079 E0.31287
G1 X-6.427 Y-10.079 E0.07147
G1 X-4.452 Y-8.104 E0.21859
G1 X-4.272 Y-8.838 E0.05911
G1 X-5.514 Y-10.079 E0.13740
G1 X-4.601 Y-10.079 E0.07147
G1 X-4.005 Y-9.483 E0.06595
G1 X-7.579 Y-7.579 F15000.000
G1 X-0.768 Y-0.768 E0.75399 F960.000
G1 X-1.360 Y-0.447 E0.05273
G1 X-7.579 Y-6.666 E0.68842
G1 X-7.579 Y-5.753 E0.07147
G1 X-1.831 Y-0.004 E0.63637
G1 X-2.182 Y0.557 E0.05186
G1 X-7.579 Y-4.840 E0.59743
G1 X-7.579 Y-3.927 E0.07147
G1 X-2.388 Y1.265 E0.57471
G1 X-2.364 Y2.201 E0.07335
G1 X-7.579 Y-3.014 E0.57733
G1 X-7.579 Y-2.101 E0.07147
G1 X-1.983 Y3.495 E0.61950
G1 X-2.547 Y3.845 E0.05192
G1 X-7.579 Y-1.187 E0.55707
G1 X-7.579 Y-0.274 E0.07147
G1 X-3.043 Y4.262 E0.50216
G1 X-3.493 Y4.725 E0.05055
G1 X-7.579 Y0.639 E0.45233
G1 X-7.579 Y1.552 E0.07147
G1 X-3.868 Y5.263 E0.41085
G1 X-4.158 Y5.885 E0.05377
G1 X-7.579 Y2.465 E0.37867
G1 X-7.579 Y3.378 E0.07147
G1 X-4.381 Y6.576 E0.35406
G1 X-4.506 Y7.364 E0.06246
G1 X-7.579 Y4.291 E0.34022
G1 X-7.579 Y5.204 E0.07147
G1 X-4.449 Y8.334 E0.34646
G1 X-4.040 Y9.656 E0.10835
G1 X-7.579 Y6.117 E0.39176
G1 X-7.579 Y7.030 E0.07147
G1 X-4.530 Y10.079 E0.33752
G1 X-5.443 Y10.079 E0.07147
G1 X-7.579 Y7.943 E0.23644
G1 X-7.579 Y8.856 E0.07147
G1 X-6.356 Y10.079 E0.13536
G1 X-7.269 Y10.079 E0.07147
G1 X-7.579 Y9.769 E0.03428
G1 E-4.20000 F1500.00000
G1 Z1.300 F15000.000
G1 X-3.042 Y8.424 F15000.000
G1 Z0.500 F15000.000
G1 E4.20000 F1500.00000
G1 X-3.170 Y7.668 E0.02213 F2400.000
G1 X-3.170 Y7.332 E0.00967
G1 X-3.042 Y6.576 E0.02213
G1 X-2.729 Y5.874 E0.02218
G1 X-2.540 Y5.603 E0.00955
G1 X-2.249 Y5.267 E0.01283
G1 X-2.013 Y5.043 E0.00938
G1 X-1.617 Y4.766 E0.01394
G1 X-1.259 Y4.582 E0.01163
G1 X-0.630 Y4.390 E0.01898
G1 X-0.300 Y4.339 E0.00964 F2400.000
G1 X0.467 Y4.355 E0.02215
G1 X1.207 Y4.562 E0.02217
G1 X1.504 Y4.708 E0.00957
G1 X1.878 Y4.948 E0.01283
G1 X2.135 Y5.147 E0.00937
G1 X2.467 Y5.500 E0.01399
G1 X2.700 Y5.824 E0.01153
G1 X2.939 Y6.312 E0.01567
G1 X3.147 Y7.060 E0.02242
G1 X3.178 Y7.501 E0.01276
G1 X3.136 Y7.999 E0.01441
G1 X2.911 Y8.775 E0.02334
G1 X2.698 Y9.178 E0.01315
G1 X2.467 Y9.500 E0.01144
G1 X2.135 Y9.853 E0.01399
G1 X1.878 Y10.052 E0.00937
G1 X1.504 Y10.292 E0.01283
G1 X1.207 Y10.438 E0.00957
G1 X0.467 Y10.645 E0.02217
G1 X-0.300 Y10.661 E0.02215
G1 X-0.630 Y10.610 E0.00964
G1 X-1.259 Y10.418 E0.01898
G1 X-1.617 Y10.234 E0.01163
G1 X-2.013 Y9.957 E0.01394
G1 X-2.249 Y9.733 E0.00938
G1 X-2.540 Y9.397 E0.01283
G1 X-2.729 Y9.126 E0.00955
G1 X-3.017 Y8.478 E0.02045
G1 X-3.427 Y8.316 F15000.000
G1 E-4.20000 F1500.00000
G1 Z1.500 F15000.000
G1 X-0.636 Y-4.386 F15000.000
G1 Z0.500 F15000.000
G1 E4.20000 F1500.00000
G1 X-1.213 Y-4.562 E0.01743 F2400.000
G1 X-1.747 Y-4.846 E0.01744
G1 X-2.251 Y-5.256 E0.01877
G1 X-2.635 Y-5.723 E0.01745
G1 X-2.942 Y-6.297 E0.01878
G1 X-3.116 Y-6.875 E0.01743
G1 X-3.178 Y-7.476 E0.01744
G1 X-3.117 Y-8.124 E0.01877
G1 X-2.942 Y-8.703 E0.01745
G1 X-2.635 Y-9.277 E0.01878
G1 X-2.251 Y-9.744 E0.01745
G1 X-1.747 Y-10.154 E0.01877
G1 X-1.213 Y-10.438 E0.01744
G1 X-0.636 Y-10.614 E0.01741
G1 X-0.035 Y-10.677 E0.01744 F2400.000
G1 X0.611 Y-10.619 E0.01874
G1 X1.191 Y-10.446 E0.01747
G1 X1.766 Y-10.142 E0.01876
G1 X2.235 Y-9.760 E0.01746
G1 X2.648 Y-9.257 E0.01878
G1 X2.933 Y-8.725 E0.01742
G1 X3.109 Y-8.151 E0.01733
G1 X3.162 Y-7.812 E0.00990
G1 X3.178 Y-7.500 E0.00902
G1 X3.162 Y-7.188 E0.00902
G1 X3.109 Y-6.849 E0.00990
G1 X2.933 Y-6.275 E0.01733
G1 X2.648 Y-5.743 E0.01742
G1 X2.235 Y-5.240 E0.01878
G1 X1.767 Y-4.858 E0.01743
G1 X1.235 Y-4.572 E0.01744
G1 X0.613 Y-4.381 E0.01878
G1 X0.012 Y-4.322 E0.01744
G1 X-0.576 Y-4.380 E0.01705
G1 X-0.910 Y-4.095 F15000.000
G1 X-0.189 Y-0.100 F15000.000
G1 X0.192 Y-0.100 E0.01099 F2400.000
G1 X0.565 Y-0.009 E0.01107
G1 X0.924 Y0.180 E0.01172
G1 X1.208 Y0.433 E0.01098
G1 X1.425 Y0.747 E0.01100
G1 X1.568 Y1.134 E0.01192
G1 X1.611 Y1.503 E0.01072
G1 X1.565 Y1.885 E0.01111
G1 X1.427 Y2.248 E0.01121
G1 X1.204 Y2.572 E0.01137
G1 X0.892 Y2.839 E0.01184
G1 X0.577 Y3.004 E0.01026
G1 X0.204 Y3.098 E0.01112
G1 X-0.206 Y3.098 E0.01181
G1 X-0.577 Y3.004 E0.01107
G1 X-0.913 Y2.827 E0.01095
G1 X-1.198 Y2.577 E0.01094
G1 X-1.418 Y2.265 E0.01103
G1 X-1.568 Y1.870 E0.01218
G1 X-1.611 Y1.492 E0.01099
G1 X-1.565 Y1.117 E0.01090
G1 X-1.422 Y0.744 E0.01154
G1 X-1.218 Y0.448 E0.01036
G1 X-0.903 Y0.166 E0.01223
G1 X-0.560 Y-0.011 E0.01114
G1 X-0.247 Y-0.086 E0.00928 F2400.000
G1 X-0.163 Y0.261 F15000.000
G1 X0.149 Y0.257 E0.00902 F2400.000
G1 X0.437 Y0.327 E0.00857
G1 X0.719 Y0.476 E0.00918
G1 X0.938 Y0.672 E0.00849
G1 X1.105 Y0.913 E0.00847
G1 X1.218 Y1.218 E0.00938
G1 X1.252 Y1.502 E0.00826
G1 X1.216 Y1.799 E0.00863
G1 X1.109 Y2.081 E0.00871
G1 X0.936 Y2.331 E0.00877
G1 X0.690 Y2.542 E0.00934
G1 X0.449 Y2.668 E0.00787
G1 X0.160 Y2.741 E0.00861
G1 X-0.161 Y2.741 E0.00925
G1 X-0.449 Y2.668 E0.00857
G1 X-0.709 Y2.531 E0.00849
G1 X-0.930 Y2.337 E0.00849
G1 X-1.100 Y2.096 E0.00851
G1 X-1.218 Y1.785 E0.00960
G1 X-1.251 Y1.493 E0.00848
G1 X-1.216 Y1.204 E0.00842
G1 X-1.104 Y0.911 E0.00904
G1 X-0.949 Y0.686 E0.00790
G1 X-0.699 Y0.462 E0.00968
G1 X-0.434 Y0.327 E0.00858
G1 X-0.222 Y0.275 E0.00632 F2400.000
G1 X-0.031 Y-0.022 F15000.000
G1 E-4.20000 F1500.00000
G1 Z1.500 F15000.000
G1 X-3.432 Y8.260 F15000.000
G1 Z0.500 F15000.000
G1 E4.20000 F1500.00000
G1 X-3.386 Y8.528 E0.00784 F2400.000
G1 X-3.042 Y9.302 E0.02446
G1 X-2.822 Y9.617 E0.01108
G1 X-2.508 Y9.980 E0.01388
G1 X-2.240 Y10.235 E0.01066
G1 X-1.802 Y10.540 E0.01541
G1 X-1.435 Y10.729 E0.01192
G1 X-1.474 Y10.893 E0.00487
G1 X-8.393 Y10.893 E0.19969
G1 X-8.393 Y-10.893 E0.62880
G1 X-1.464 Y-10.893 E0.19999
G1 X-1.423 Y-10.730 E0.00483
G1 X-1.945 Y-10.453 E0.01706 F2400.000
G1 X-2.505 Y-9.998 E0.02081
G1 X-2.933 Y-9.476 E0.01950
G1 X-3.273 Y-8.840 E0.02082
G1 X-3.469 Y-8.193 E0.01950
G1 X-3.536 Y-7.475 E0.02081
G1 X-3.468 Y-6.805 E0.01944
G1 X-3.273 Y-6.160 E0.01944
G1 X-2.933 Y-5.524 E0.02082
G1 X-2.505 Y-5.002 E0.01950
G1 X-1.945 Y-4.547 E0.02081
G1 X-1.350 Y-4.231 E0.01944
G1 X-0.706 Y-4.034 E0.01944
G1 X0.012 Y-3.963 E0.02082
G1 X0.684 Y-4.030 E0.01949
G1 X1.373 Y-4.241 E0.02082
G1 X1.966 Y-4.560 E0.01944
G1 X2.488 Y-4.986 E0.01944
G1 X2.946 Y-5.543 E0.02082
G1 X3.264 Y-6.137 E0.01944
G1 X3.458 Y-6.768 E0.01906
G1 X3.518 Y-7.152 E0.01119
G1 X3.535 Y-7.500 E0.01007
G1 X3.518 Y-7.848 E0.01007
G1 X3.458 Y-8.232 E0.01119
G1 X3.264 Y-8.863 E0.01906
G1 X2.946 Y-9.457 E0.01944
G1 X2.488 Y-10.014 E0.02082
G1 X1.965 Y-10.441 E0.01951
G1 X1.417 Y-10.730 E0.01786
G1 X1.458 Y-10.893 E0.00484
G1 X8.393 Y-10.893 E0.20017
G1 X8.393 Y10.893 E0.62880
G1 X1.467 Y10.893 E0.19991
G1 X1.428 Y10.727 E0.00491
G1 X1.680 Y10.604 E0.00809
G1 X2.084 Y10.344 E0.01388
G1 X2.376 Y10.118 E0.01063
G1 X2.743 Y9.728 E0.01548
G1 X3.003 Y9.367 E0.01283
G1 X3.244 Y8.910 E0.01491
G1 X3.489 Y8.064 E0.02542
G1 X3.536 Y7.504 E0.01623
G1 X3.501 Y6.999 E0.01460
G1 X3.274 Y6.185 E0.02441
G1 X3.008 Y5.640 E0.01748
G1 X2.743 Y5.272 E0.01308
G1 X2.376 Y4.882 E0.01548
G1 X2.084 Y4.656 E0.01063
G1 X1.680 Y4.396 E0.01388
G1 X1.334 Y4.227 E0.01111
G1 X0.519 Y3.999 E0.02442
G1 X-0.324 Y3.982 E0.02434
G1 X-0.710 Y4.041 E0.01128
G1 X-1.394 Y4.250 E0.02065
G1 X-1.802 Y4.460 E0.01324
G1 X-2.240 Y4.765 E0.01541
