; generated by Slic3r 1.2.9 on 2020-03-11 at 14:50:55

; external perimeters extrusion width = 0.40mm
; perimeters extrusion width = 0.40mm
; infill extrusion width = 0.40mm
; solid infill extrusion width = 0.40mm
; top infill extrusion width = 0.40mm

M107
M83
T0
M116
G21 ; set units to millimeters
G90 ; use absolute coordinates
M83 ; use relative distances for extrusion
G1 E-4.20000 F1500.00000
G1 Z1.000 F15000.000
G1 X12.586 Y0.000 F15000.000
G1 Z0.300 F15000.000
G1 E4.20000 F1500.00000
G1 X12.586 Y11.450 E0.88240 F960.000
G1 X12.191 Y13.097 E0.13052
G1 X11.093 Y14.387 E0.13052
G1 X8.950 Y15.086 E0.17373
G1 X-8.950 Y15.086 E1.37947
G1 X-10.597 Y14.691 E0.13052
G1 X-11.887 Y13.593 E0.13052
G1 X-12.586 Y11.450 E0.17373
G1 X-12.586 Y-11.450 E1.76480
G1 X-12.191 Y-13.097 E0.13052
G1 X-11.093 Y-14.387 E0.13052
G1 X-8.950 Y-15.086 E0.17373
G1 X8.950 Y-15.086 E1.37947
G1 X10.597 Y-14.691 E0.13052
G1 X11.887 Y-13.593 E0.13052 F960.000
G1 X12.586 Y-11.450 E0.17373
G1 X12.586 Y-0.060 E0.87778
G1 E-4.20000 F1500.00000
G1 Z1.300 F15000.000
G1 X1.862 Y6.523 F15000.000
G1 Z0.300 F15000.000
G1 E4.20000 F1500.00000
G1 X2.042 Y6.997 E0.03907 F600.000
G1 X2.103 Y7.500 E0.03907
G1 X2.042 Y8.003 E0.03907
G1 X1.862 Y8.477 E0.03907
G1 X1.574 Y8.895 E0.03907
G1 X1.195 Y9.231 E0.03907
G1 X0.746 Y9.466 E0.03907
G1 X0.253 Y9.588 E0.03907
G1 X-0.253 Y9.588 E0.03907
G1 X-0.746 Y9.466 E0.03907
G1 X-1.195 Y9.231 E0.03907
G1 X-1.574 Y8.895 E0.03907
G1 X-1.863 Y8.476 E0.03917
G1 X-2.044 Y7.989 E0.04004
G1 X-2.103 Y7.500 E0.03798
G1 X-2.042 Y6.997 E0.03907
G1 X-1.862 Y6.523 E0.03907
G1 X-1.574 Y6.105 E0.03907
G1 X-1.195 Y5.769 E0.03907
G1 X-0.746 Y5.534 E0.03907
G1 X-0.253 Y5.412 E0.03907
G1 X0.253 Y5.412 E0.03907 F600.000
G1 X0.746 Y5.534 E0.03907
G1 X1.195 Y5.769 E0.03907
G1 X1.574 Y6.105 E0.03907
G1 X1.828 Y6.473 E0.03444
G1 X2.261 Y6.555 F15000.000
G1 E-4.20000 F1500.00000
G1 Z1.300 F15000.000
G1 X0.253 Y-5.412 F15000.000
G1 Z0.300 F15000.000
G1 E4.20000 F1500.00000
G1 X-0.253 Y-5.412 E0.03907 F600.000
G1 X-0.746 Y-5.534 E0.03907
G1 X-1.195 Y-5.769 E0.03907
G1 X-1.574 Y-6.105 E0.03907
G1 X-1.863 Y-6.524 E0.03917
G1 X-2.044 Y-7.011 E0.04004
G1 X-2.103 Y-7.500 E0.03798
G1 X-2.042 Y-8.003 E0.03907
G1 X-1.862 Y-8.477 E0.03907
G1 X-1.574 Y-8.895 E0.03907
G1 X-1.195 Y-9.231 E0.03907
G1 X-0.746 Y-9.466 E0.03907
G1 X-0.253 Y-9.588 E0.03907
G1 X0.253 Y-9.588 E0.03907 F600.000
G1 X0.746 Y-9.466 E0.03907
G1 X1.195 Y-9.231 E0.03907
G1 X1.574 Y-8.895 E0.03907
G1 X1.862 Y-8.477 E0.03907
G1 X2.042 Y-8.003 E0.03907
G1 X2.103 Y-7.500 E0.03907
G1 X2.042 Y-6.997 E0.03907
G1 X1.862 Y-6.523 E0.03907
G1 X1.573 Y-6.104 E0.03917
G1 X1.182 Y-5.763 E0.04004
G1 X0.746 Y-5.534 E0.03798
G1 X0.312 Y-5.427 E0.03445
G1 X0.082 Y-5.051 F15000.000
G1 X0.255 Y-3.527 F15000.000
G1 X0.729 Y-3.409 E0.03759 F600.000
G1 X1.162 Y-3.181 E0.03771
G1 X1.534 Y-2.851 E0.03830
G1 X1.816 Y-2.433 E0.03886
G1 X1.984 Y-1.989 E0.03663
G1 X2.043 Y-1.500 E0.03793
G1 X1.984 Y-1.010 E0.03805
G1 X1.809 Y-0.550 E0.03792
G1 X1.529 Y-0.145 E0.03792
G1 X1.161 Y0.182 E0.03792
G1 X0.724 Y0.411 E0.03809
G1 X0.243 Y0.528 E0.03816
G1 X-0.245 Y0.528 E0.03755
G1 X-0.724 Y0.411 E0.03804
G1 X-1.161 Y0.182 E0.03800
G1 X-1.528 Y-0.144 E0.03784
G1 X-1.809 Y-0.550 E0.03807
G1 X-1.984 Y-1.011 E0.03798
G1 X-2.044 Y-1.505 E0.03834
G1 X-1.977 Y-2.007 E0.03901
G1 X-1.809 Y-2.449 E0.03648
G1 X-1.530 Y-2.854 E0.03794
G1 X-1.162 Y-3.180 E0.03785
G1 X-0.726 Y-3.410 E0.03801
G1 X-0.234 Y-3.529 E0.03899 F600.000
G1 X0.195 Y-3.527 E0.03310
G1 X0.176 Y-2.891 F15000.000
G1 X0.501 Y-2.810 E0.02581 F600.000
G1 X0.798 Y-2.654 E0.02589
G1 X1.052 Y-2.429 E0.02615
G1 X1.247 Y-2.139 E0.02696
G1 X1.362 Y-1.835 E0.02501
G1 X1.403 Y-1.500 E0.02602
G1 X1.362 Y-1.163 E0.02616
G1 X1.242 Y-0.848 E0.02600
G1 X1.050 Y-0.570 E0.02606
G1 X0.797 Y-0.345 E0.02606
G1 X0.497 Y-0.188 E0.02609
G1 X0.166 Y-0.107 E0.02625
G1 X-0.168 Y-0.107 E0.02575
G1 X-0.498 Y-0.188 E0.02615
G1 X-0.797 Y-0.345 E0.02606
G1 X-1.049 Y-0.569 E0.02597
G1 X-1.242 Y-0.848 E0.02618
G1 X-1.362 Y-1.164 E0.02606
G1 X-1.403 Y-1.501 E0.02615
G1 X-1.357 Y-1.850 E0.02712
G1 X-1.242 Y-2.152 E0.02487
G1 X-1.050 Y-2.430 E0.02606
G1 X-0.798 Y-2.654 E0.02598
G1 X-0.500 Y-2.811 E0.02601
G1 X-0.160 Y-2.893 E0.02693 F600.000
G1 X0.116 Y-2.892 E0.02124
G1 X0.388 Y-3.150 F15000.000
G1 E-4.20000 F1500.00000
G1 Z1.300 F15000.000
G1 X-7.964 Y5.813 F15000.000
G1 Z0.300 F15000.000
G1 E4.20000 F1500.00000
G1 X-7.964 Y-10.464 E1.25445 F720.000
G1 X-0.754 Y-10.464 E0.55569
G1 X-0.713 Y-10.129 E0.02604
G1 X-0.973 Y-10.065 E0.02061 F720.000
G1 X-1.558 Y-9.758 E0.05097
G1 X-2.053 Y-9.319 E0.05096
G1 X-2.429 Y-8.775 E0.05096
G1 X-2.664 Y-8.157 E0.05096
G1 X-2.743 Y-7.500 E0.05096
G1 X-2.665 Y-6.860 E0.04970
G1 X-2.431 Y-6.228 E0.05193
G1 X-2.053 Y-5.681 E0.05124
G1 X-1.558 Y-5.242 E0.05096
G1 X-0.973 Y-4.935 E0.05096
G1 X-0.331 Y-4.777 E0.05096
G1 X0.331 Y-4.777 E0.05097
G1 X0.973 Y-4.935 E0.05097
G1 X1.544 Y-5.235 E0.04970
G1 X2.051 Y-5.678 E0.05193
G1 X2.429 Y-6.225 E0.05124
G1 X2.664 Y-6.844 E0.05096
G1 X2.743 Y-7.500 E0.05096
G1 X2.664 Y-8.156 E0.05096
G1 X2.429 Y-8.775 E0.05097
G1 X2.053 Y-9.319 E0.05096
G1 X1.558 Y-9.758 E0.05096
G1 X0.973 Y-10.065 E0.05096
G1 X0.713 Y-10.129 E0.02062
G1 X0.754 Y-10.464 E0.02604
G1 X7.964 Y-10.464 E0.55569
G1 X7.964 Y10.464 E1.61289
G1 X0.754 Y10.464 E0.55569
G1 X0.713 Y10.129 E0.02604
G1 X0.973 Y10.065 E0.02062
G1 X1.558 Y9.758 E0.05097
G1 X2.053 Y9.319 E0.05096
G1 X2.429 Y8.775 E0.05096
G1 X2.664 Y8.156 E0.05096
G1 X2.743 Y7.500 E0.05097
G1 X2.664 Y6.843 E0.05096
G1 X2.429 Y6.225 E0.05096
G1 X2.053 Y5.681 E0.05096
G1 X1.558 Y5.242 E0.05096
G1 X0.973 Y4.935 E0.05097
G1 X0.331 Y4.777 E0.05096
G1 X-0.331 Y4.777 E0.05096
G1 X-0.973 Y4.935 E0.05096
G1 X-1.558 Y5.242 E0.05097
G1 X-2.053 Y5.681 E0.05096
G1 X-2.429 Y6.225 E0.05096
G1 X-2.664 Y6.843 E0.05096
G1 X-2.743 Y7.500 E0.05097
G1 X-2.665 Y8.140 E0.04970
G1 X-2.431 Y8.772 E0.05193
G1 X-2.053 Y9.319 E0.05124
G1 X-1.558 Y9.758 E0.05096
G1 X-0.973 Y10.065 E0.05097
G1 X-0.713 Y10.129 E0.02062
G1 X-0.754 Y10.464 E0.02604
G1 X-7.964 Y10.464 E0.55569
G1 X-7.964 Y5.873 E0.35381
G1 X-8.600 Y5.873 F15000.000
G1 X-8.600 Y-11.100 E1.30806 F720.000
G1 X8.600 Y-11.100 E1.32553
G1 X8.600 Y11.100 E1.71085
G1 X-8.600 Y11.100 E1.32553 F720.000
G1 X-8.600 Y5.933 E0.39817
G1 X-8.254 Y5.673 F15000.000
G1 X-7.269 Y10.079 F15000.000
G1 X-7.579 Y9.769 E0.03428 F960.000
G1 X-7.579 Y8.856 E0.07147
G1 X-6.356 Y10.079 E0.13536
G1 X-5.443 Y10.079 E0.07147
G1 X-7.579 Y7.943 E0.23644
G1 X-7.579 Y7.030 E0.07147
G1 X-4.530 Y10.079 E0.33752
G1 X-3.617 Y10.079 E0.07147
G1 X-7.579 Y6.117 E0.43860
G1 X-7.579 Y5.204 E0.07147
G1 X-2.704 Y10.079 E0.53968
G1 X-2.785 Y9.085 E0.07808
G1 X-7.579 Y4.291 E0.53071
G1 X-7.579 Y3.378 E0.07147
G1 X-3.106 Y7.851 E0.49515
G1 X-3.054 Y6.990 E0.06752
G1 X-7.579 Y2.465 E0.50092
G1 X-7.579 Y1.552 E0.07147
G1 X-2.829 Y6.302 E0.52588
G1 X-2.490 Y5.728 E0.05220
G1 X-7.579 Y0.639 E0.56338
G1 X-7.579 Y-0.274 E0.07147
G1 X-2.059 Y5.245 E0.61106
G1 X-1.540 Y4.851 E0.05101
G1 X-7.579 Y-1.187 E0.66849
G1 X-7.579 Y-2.101 E0.07147
G1 X-0.923 Y4.555 E0.73681
G1 X-0.174 Y4.391 F15000.000
G1 X-7.579 Y-3.014 E0.81976 F960.000
G1 X-7.579 Y-3.927 E0.07147
G1 X0.808 Y4.460 E0.92846
G1 E-4.20000 F1500.00000
G1 Z1.300 F15000.000
G1 X2.266 Y9.571 F15000.000
G1 Z0.300 F15000.000
G1 E4.20000 F1500.00000
G1 X2.774 Y10.079 E0.05623 F960.000
G1 X3.687 Y10.079 E0.07147
G1 X2.650 Y9.041 E0.11491
G1 X2.936 Y8.415 E0.05393
G1 X4.601 Y10.079 E0.18426
G1 X5.514 Y10.079 E0.07147
G1 X3.096 Y7.662 E0.26759
G1 X3.052 Y6.705 E0.07501
G1 X6.427 Y10.079 E0.37356
G1 X0.719 Y-3.846 F15000.000
G1 X0.174 Y-4.391 E0.06039 F960.000
G1 X-0.243 Y-3.895 E0.05073
G1 X-0.808 Y-4.460 E0.06258
G1 E-4.20000 F1500.00000
G1 Z1.300 F15000.000
G1 X-2.266 Y-9.571 F15000.000
G1 Z0.300 F15000.000
G1 E4.20000 F1500.00000
G1 X-2.774 Y-10.079 E0.05623 F960.000
G1 X-3.688 Y-10.079 E0.07147
G1 X-2.650 Y-9.041 E0.11491
G1 X-2.936 Y-8.414 E0.05393
G1 X-4.601 Y-10.079 E0.18426
G1 X-5.514 Y-10.079 E0.07147
G1 X-3.096 Y-7.662 E0.26759
G1 X-3.052 Y-6.705 E0.07501
G1 X-6.427 Y-10.079 E0.37357
G1 X-7.340 Y-10.079 E0.07147
G1 X-0.940 Y-3.679 E0.70846
G1 X-1.498 Y-3.324 E0.05176
G1 X-7.579 Y-9.405 E0.67322
G1 X-7.579 Y-8.492 E0.07147
G1 X-1.937 Y-2.850 E0.62459
G1 X-2.254 Y-2.254 E0.05285
G1 X-7.579 Y-7.579 E0.58951
G1 X-7.579 Y-6.666 E0.07147
G1 X-2.416 Y-1.503 E0.57153
G1 X-2.224 Y-0.398 E0.08779
G1 X-7.579 Y-5.753 E0.59277
G1 X-7.579 Y-4.840 E0.07147
G1 X7.340 Y10.079 E1.65157
G1 X7.579 Y9.405 E0.05597
G1 X-1.077 Y0.749 E0.95824
G1 X0.001 Y0.914 E0.08534
G1 X7.579 Y8.492 E0.83894
G1 X7.579 Y7.579 E0.07147
G1 X0.768 Y0.768 E0.75399
G1 X1.360 Y0.447 E0.05270
G1 X7.579 Y6.666 E0.68851
G1 X7.579 Y5.753 E0.07147
G1 X1.830 Y0.004 E0.63641
G1 X2.182 Y-0.557 E0.05185
G1 X7.579 Y4.840 E0.59743
G1 X7.579 Y3.927 E0.07147
G1 X2.388 Y-1.265 E0.57471
G1 X2.364 Y-2.201 E0.07335
G1 X7.579 Y3.014 E0.57733
G1 X7.579 Y2.101 E0.07147
G1 X0.923 Y-4.555 E0.73681
G1 X1.540 Y-4.851 E0.05358
G1 X7.579 Y1.188 E0.66849
G1 X7.579 Y0.274 E0.07147
G1 X2.058 Y-5.246 E0.61115
G1 X2.490 Y-5.728 E0.05062
G1 X7.579 Y-0.639 E0.56338
G1 X7.579 Y-1.552 E0.07147
G1 X2.829 Y-6.302 E0.52589
G1 X3.054 Y-6.990 E0.05664
G1 X7.579 Y-2.465 E0.50092
G1 X7.579 Y-3.378 E0.07147
G1 X3.106 Y-7.851 E0.49515
G1 X2.784 Y-9.086 E0.09997
G1 X7.579 Y-4.291 E0.53086
G1 X7.579 Y-5.204 E0.07147
G1 X2.704 Y-10.079 E0.53968
G1 X3.617 Y-10.079 E0.07147
G1 X7.579 Y-6.117 E0.43860
G1 X7.579 Y-7.030 E0.07147
G1 X4.530 Y-10.079 E0.33752
G1 X5.443 Y-10.079 E0.07147
G1 X7.579 Y-7.943 E0.23644
G1 X7.579 Y-8.856 E0.07147
G1 X6.356 Y-10.079 E0.13536
G1 X7.269 Y-10.079 E0.07147
G1 X7.579 Y-9.769 E0.03428
G1 E-4.20000 F1500.00000
G1 Z1.300 F15000.000
G1 X0.820 Y5.339 F15000.000
G1 Z0.500 F15000.000
G1 E4.20000 F1500.00000
G1 X1.313 Y5.598 E0.01608 F2400.000
G1 X1.730 Y5.967 E0.01608
G1 X2.047 Y6.426 E0.01608
G1 X2.244 Y6.947 E0.01608
G1 X2.312 Y7.500 E0.01608
G1 X2.244 Y8.053 E0.01608
G1 X2.047 Y8.574 E0.01608
G1 X1.730 Y9.033 E0.01608
G1 X1.313 Y9.402 E0.01608
G1 X0.820 Y9.661 E0.01608
G1 X0.279 Y9.795 E0.01608
G1 X-0.279 Y9.795 E0.01608
G1 X-0.820 Y9.661 E0.01608
G1 X-1.313 Y9.402 E0.01608
G1 X-1.730 Y9.033 E0.01608
G1 X-2.049 Y8.571 E0.01619
G1 X-2.248 Y8.025 E0.01677
G1 X-2.312 Y7.500 E0.01528
G1 X-2.244 Y6.947 E0.01608
G1 X-2.047 Y6.426 E0.01608
G1 X-1.730 Y5.967 E0.01608
G1 X-1.313 Y5.598 E0.01608
G1 X-0.820 Y5.339 E0.01608
G1 X-0.279 Y5.205 E0.01608
G1 X0.279 Y5.205 E0.01608 F2400.000
G1 X0.761 Y5.324 E0.01435
G1 X0.676 Y5.671 F15000.000
G1 X1.109 Y5.894 E0.01405 F2400.000
G1 X1.461 Y6.206 E0.01358
G1 X1.728 Y6.593 E0.01358
G1 X1.895 Y7.033 E0.01358
G1 X1.952 Y7.500 E0.01358
G1 X1.895 Y7.967 E0.01358
G1 X1.728 Y8.407 E0.01358
G1 X1.461 Y8.794 E0.01358
G1 X1.109 Y9.106 E0.01358
G1 X0.692 Y9.325 E0.01358
G1 X0.235 Y9.438 E0.01358
G1 X-0.235 Y9.438 E0.01358
G1 X-0.692 Y9.325 E0.01358
G1 X-1.109 Y9.106 E0.01358
G1 X-1.461 Y8.794 E0.01358
G1 X-1.729 Y8.406 E0.01362
G1 X-1.898 Y7.942 E0.01426
G1 X-1.952 Y7.500 E0.01284
G1 X-1.895 Y7.033 E0.01358
G1 X-1.728 Y6.593 E0.01358
G1 X-1.461 Y6.206 E0.01358
G1 X-1.109 Y5.894 E0.01358
G1 X-0.692 Y5.675 E0.01358
G1 X-0.235 Y5.562 E0.01358
G1 X0.235 Y5.562 E0.01358 F2400.000
G1 X0.618 Y5.657 E0.01137
G1 X0.994 Y5.429 F15000.000
G1 X0.192 Y0.100 F15000.000
G1 X-0.192 Y0.100 E0.01109 F2400.000
G1 X-0.565 Y0.009 E0.01107
G1 X-0.924 Y-0.180 E0.01172
G1 X-1.208 Y-0.433 E0.01098
G1 X-1.423 Y-0.745 E0.01092
G1 X-1.565 Y-1.118 E0.01152
G1 X-1.610 Y-1.484 E0.01067
G1 X-1.566 Y-1.882 E0.01156
G1 X-1.427 Y-2.248 E0.01128
G1 X-1.207 Y-2.568 E0.01122
G1 X-0.918 Y-2.825 E0.01115
G1 X-0.575 Y-3.006 E0.01119
G1 X-0.175 Y-3.101 E0.01185 F2400.000
G1 X0.208 Y-3.097 E0.01106
G1 X0.577 Y-3.004 E0.01100
G1 X0.913 Y-2.827 E0.01095
G1 X1.199 Y-2.576 E0.01098
G1 X1.428 Y-2.246 E0.01160
G1 X1.563 Y-1.892 E0.01091
G1 X1.611 Y-1.514 E0.01100
G1 X1.559 Y-1.097 E0.01215
G1 X1.421 Y-0.742 E0.01099
G1 X1.206 Y-0.432 E0.01089
G1 X0.924 Y-0.180 E0.01092
G1 X0.587 Y-0.000 E0.01100
G1 X0.250 Y0.085 E0.01004
G1 X0.162 Y-0.261 F15000.000
G1 X-0.149 Y-0.257 E0.00899 F2400.000
G1 X-0.437 Y-0.327 E0.00857
G1 X-0.719 Y-0.476 E0.00918
G1 X-0.938 Y-0.672 E0.00849
G1 X-1.105 Y-0.912 E0.00845
G1 X-1.216 Y-1.204 E0.00902
G1 X-1.251 Y-1.486 E0.00821
G1 X-1.216 Y-1.798 E0.00905
G1 X-1.109 Y-2.081 E0.00873
G1 X-0.937 Y-2.330 E0.00872
G1 X-0.713 Y-2.529 E0.00866
G1 X-0.448 Y-2.669 E0.00865
G1 X-0.135 Y-2.744 E0.00928 F2400.000
G1 X0.162 Y-2.741 E0.00857
G1 X0.449 Y-2.668 E0.00854
G1 X0.709 Y-2.531 E0.00849
G1 X0.931 Y-2.337 E0.00850
G1 X1.110 Y-2.078 E0.00908
G1 X1.214 Y-1.805 E0.00843
G1 X1.251 Y-1.514 E0.00848
G1 X1.210 Y-1.185 E0.00957
G1 X1.104 Y-0.910 E0.00849
G1 X0.937 Y-0.670 E0.00845
G1 X0.718 Y-0.475 E0.00847
G1 X0.457 Y-0.336 E0.00852
G1 X0.221 Y-0.276 E0.00705
G1 X0.032 Y0.022 F15000.000
G1 E-4.20000 F1500.00000
G1 Z1.500 F15000.000
G1 X0.221 Y-5.205 F15000.000
G1 Z0.500 F15000.000
G1 E4.20000 F1500.00000
G1 X-0.279 Y-5.205 E0.01441 F2400.000
G1 X-0.820 Y-5.339 E0.01608
G1 X-1.309 Y-5.595 E0.01594
G1 X-1.711 Y-5.940 E0.01530
G1 X-2.049 Y-6.429 E0.01714
G1 X-2.248 Y-6.975 E0.01677
G1 X-2.312 Y-7.500 E0.01528
G1 X-2.244 Y-8.053 E0.01608
G1 X-2.047 Y-8.574 E0.01608
G1 X-1.730 Y-9.033 E0.01608
G1 X-1.313 Y-9.402 E0.01608
G1 X-1.230 Y-9.446 E0.00270
G1 X-1.230 Y-9.560 E0.00330
G1 X-0.279 Y-9.795 E0.02829
G1 X0.279 Y-9.795 E0.01608 F2400.000
G1 X0.823 Y-9.660 E0.01619
G1 X1.334 Y-9.384 E0.01677
G1 X1.730 Y-9.033 E0.01528
G1 X2.047 Y-8.574 E0.01608
G1 X2.244 Y-8.053 E0.01608
G1 X2.312 Y-7.500 E0.01608
G1 X2.244 Y-6.947 E0.01608
G1 X2.047 Y-6.426 E0.01608
G1 X1.730 Y-5.967 E0.01608
G1 X1.313 Y-5.598 E0.01608
G1 X0.820 Y-5.339 E0.01608
G1 X0.280 Y-5.206 E0.01603
G1 X0.235 Y-5.562 F15000.000
G1 X-0.235 Y-5.562 E0.01358 F2400.000
G1 X-0.692 Y-5.675 E0.01358
G1 X-1.107 Y-5.893 E0.01353
G1 X-1.444 Y-6.181 E0.01279
G1 X-1.729 Y-6.594 E0.01448
G1 X-1.898 Y-7.058 E0.01426
G1 X-1.952 Y-7.500 E0.01284
G1 X-1.895 Y-7.967 E0.01358
G1 X-1.728 Y-8.407 E0.01358
G1 X-1.461 Y-8.794 E0.01358
G1 X-1.109 Y-9.106 E0.01358
G1 X-0.873 Y-9.230 E0.00768
G1 X-0.873 Y-9.280 E0.00145
G1 X-0.235 Y-9.438 E0.01896
G1 X0.235 Y-9.438 E0.01358 F2400.000
G1 X0.693 Y-9.325 E0.01362
G1 X1.128 Y-9.089 E0.01426
G1 X1.461 Y-8.794 E0.01284
G1 X1.728 Y-8.407 E0.01358
G1 X1.895 Y-7.967 E0.01358
G1 X1.952 Y-7.500 E0.01358
G1 X1.895 Y-7.033 E0.01358
G1 X1.728 Y-6.593 E0.01358
G1 X1.461 Y-6.206 E0.01358
G1 X1.109 Y-5.894 E0.01358
G1 X0.692 Y-5.675 E0.01358
G1 X0.294 Y-5.577 E0.01185
G1 X0.064 Y-5.201 F15000.000
G1 X-8.393 Y4.849 F15000.000
G1 X-8.393 Y-10.893 E0.45434 F2400.000
G1 X8.393 Y-10.893 E0.48448
G1 X8.393 Y10.893 E0.62880
G1 X-8.393 Y10.893 E0.48448 F2400.000
G1 X-8.393 Y4.909 E0.17272
G1 X-8.750 Y4.909 F15000.000
G1 X-8.750 Y-11.250 E0.46638 F2400.000
G1 X8.750 Y-11.250 E0.50510
G1 X8.750 Y11.250 E0.64941
G1 X-8.750 Y11.250 E0.50510 F2400.000
G1 X-8.750 Y4.969 E0.18130
G1 X-8.404 Y4.709 F15000.000
G1 X-8.185 Y8.953 F15000.000
G1 X0.513 Y0.255 E0.35980 F2411.767
G1 X-0.052 Y0.308 E0.01659
G1 X-8.185 Y8.441 E0.33644
G1 X-8.185 Y7.929 E0.01497
G1 X-0.483 Y0.227 E0.31861
G1 X-0.838 Y0.070 E0.01135
G1 X-8.185 Y7.418 E0.30393
G1 X-8.185 Y6.906 E0.01497
G1 X-1.142 Y-0.138 E0.29136
G1 X-1.397 Y-0.394 E0.01058
G1 X-8.185 Y6.394 E0.28079
G1 X-8.185 Y5.882 E0.01497
G1 X-1.604 Y-0.699 E0.27221
G1 X-1.745 Y-1.069 E0.01160
G1 X-8.185 Y5.371 E0.26638
G1 X-8.185 Y4.859 E0.01497
G1 X-1.814 Y-1.512 E0.26353
G1 X-1.740 Y-2.098 E0.01727
G1 X-8.185 Y4.347 E0.26659
G1 X-8.185 Y3.835 E0.01497
G1 X0.732 Y-5.082 E0.36887
G1 X0.136 Y-4.998 E0.01762
G1 X-8.185 Y3.324 E0.34420
G1 X-8.185 Y2.812 E0.01497
G1 X-0.348 Y-5.025 E0.32416
G1 X-0.759 Y-5.126 E0.01237
G1 X-8.185 Y2.300 E0.30718
G1 X-8.185 Y1.788 E0.01497
G1 X-1.110 Y-5.287 E0.29265
G1 X-1.437 Y-5.472 E0.01098
G1 X-8.185 Y1.277 E0.27916
G1 X-8.185 Y0.765 E0.01497
G1 X-1.712 Y-5.708 E0.26775
G1 X-1.954 Y-5.978 E0.01060
G1 X-8.185 Y0.253 E0.25774
G1 X-8.185 Y-0.259 E0.01497
G1 X-2.163 Y-6.281 E0.24910
G1 X-2.322 Y-6.634 E0.01132
