; generated by Slic3r 1.3.0 on 2020-01-29 at 15:07:51

; external perimeters extrusion width = 0.44mm (1.63mm^3/s)
; perimeters extrusion width = 0.56mm (3.05mm^3/s)
; infill extrusion width = 0.50mm (2.69mm^3/s)
; solid infill extrusion width = 0.56mm (3.05mm^3/s)
; top infill extrusion width = 0.56mm (2.44mm^3/s)

M107
M83
T0
M116
; Filament gcode

G21 ; set units to millimeters
G90 ; use absolute coordinates
M83 ; use relative distances for extrusion
G1 E-1.50000 F3000.00000
G1 Z0.400 F6000.000
G1 X-30.122 Y-24.529 F6000.000
G1 Z0.300 F6000.000
G1 E1.50000 F3000.00000
G1 F750
G1 X-21.722 Y-34.029 E0.66252
G1 X-19.904 Y-35.487 E0.12175
G1 X-16.600 Y-36.338 E0.17825
G1 X14.000 Y-36.338 E1.59869
G1 X16.296 Y-35.941 E0.12175
G1 X18.103 Y-34.970 E0.10714
G1 X24.103 Y-30.470 E0.39184
G1 X24.529 Y-30.122 E0.02876
G1 X34.029 Y-21.722 E0.66252
G1 X35.487 Y-19.904 E0.12175
G1 X36.338 Y-16.600 E0.17825
G1 X36.338 Y14.000 E1.59869
G1 X35.941 Y16.296 E0.12175
G1 X34.970 Y18.103 E0.10714
G1 X30.470 Y24.103 E0.39184
G1 X30.122 Y24.529 E0.02876
G1 X21.722 Y34.029 E0.66252
G1 X19.904 Y35.487 E0.12175
G1 X16.600 Y36.338 E0.17825
G1 X-14.000 Y36.338 E1.59869
G1 X-16.296 Y35.941 E0.12175
G1 X-18.103 Y34.970 E0.10714
G1 X-24.103 Y30.470 E0.39184
G1 X-24.529 Y30.122 E0.02876
G1 X-34.029 Y21.722 E0.66252
G1 X-35.487 Y19.904 E0.12175
G1 X-36.338 Y16.600 E0.17825
G1 X-36.338 Y-14.000 E1.59869
G1 X-35.941 Y-16.296 E0.12175
G1 X-34.970 Y-18.103 E0.10714
G1 X-30.470 Y-24.103 E0.39184
G1 X-30.160 Y-24.483 E0.02562
G1 X-29.809 Y-24.252 F6000.000
G1 F750
G1 X-21.409 Y-33.752 E0.66252
G1 X-19.639 Y-35.154 E0.11793
G1 X-16.600 Y-35.919 E0.16375
G1 X14.000 Y-35.919 E1.59869
G1 X16.222 Y-35.522 E0.11793
G1 X17.851 Y-34.635 E0.09691
G1 X23.851 Y-30.135 E0.39184
G1 X24.252 Y-29.809 E0.02700
G1 X33.752 Y-21.409 E0.66252
G1 X35.154 Y-19.639 E0.11793
G1 X35.919 Y-16.600 E0.16375
G1 X35.919 Y14.000 E1.59869
G1 X35.522 Y16.222 E0.11793
G1 X34.635 Y17.851 E0.09691
G1 X30.135 Y23.851 E0.39184
G1 X29.809 Y24.252 E0.02700
G1 X21.409 Y33.752 E0.66252
G1 X19.639 Y35.154 E0.11793
G1 X16.600 Y35.919 E0.16375
G1 X-14.000 Y35.919 E1.59869
G1 X-16.222 Y35.522 E0.11793
G1 X-17.851 Y34.635 E0.09691
G1 X-23.851 Y30.135 E0.39184
G1 X-24.252 Y29.809 E0.02700
G1 X-33.752 Y21.409 E0.66252
G1 X-35.154 Y19.639 E0.11793
G1 X-35.919 Y16.600 E0.16375
G1 X-35.919 Y-14.000 E1.59869
G1 X-35.522 Y-16.222 E0.11793
G1 X-34.635 Y-17.851 E0.09691
G1 X-30.135 Y-23.851 E0.39184
G1 X-29.847 Y-24.205 E0.02386
G1 E-1.50000 F3000.00000
G1 Z0.700 F6000.000
G1 X-1.540 Y13.262 F6000.000
G1 Z0.300 F6000.000
G1 E1.50000 F3000.00000
G1 F750
G1 X-1.073 Y12.940 E0.02961
G1 X-0.506 Y12.740 E0.03141
G1 X-0.000 Y12.678 E0.02665
G1 X0.556 Y12.746 E0.02924
G1 X1.079 Y12.944 E0.02924
G1 X1.540 Y13.262 E0.02924
G1 X1.911 Y13.681 E0.02924
G1 X2.171 Y14.177 E0.02924
G1 X2.305 Y14.720 E0.02924
G1 X2.305 Y15.280 E0.02924
G1 X2.171 Y15.823 E0.02924
G1 X1.911 Y16.319 E0.02924
G1 X1.540 Y16.738 E0.02924
G1 X1.079 Y17.056 E0.02924
G1 X0.549 Y17.257 E0.02961
G1 X-0.049 Y17.316 E0.03141
G1 X-0.556 Y17.254 E0.02665
G1 X-1.079 Y17.056 E0.02924
G1 X-1.540 Y16.738 E0.02924
G1 X-1.911 Y16.319 E0.02924
G1 X-2.171 Y15.823 E0.02924
G1 X-2.305 Y15.280 E0.02924
G1 X-2.305 Y14.720 E0.02924
G1 X-2.171 Y14.177 E0.02924
G1 X-1.911 Y13.681 E0.02924
G1 X-1.579 Y13.307 E0.02611
G1 X-1.282 Y13.570 F6000.000
G1 F750
G1 X-0.891 Y13.297 E0.02236
G1 X-0.415 Y13.129 E0.02365
G1 X-0.000 Y13.078 E0.01959
G1 X0.460 Y13.134 E0.02170
G1 X0.893 Y13.298 E0.02170
G1 X1.274 Y13.562 E0.02170
G1 X1.581 Y13.908 E0.02170
G1 X1.797 Y14.319 E0.02170
G1 X1.908 Y14.768 E0.02170
G1 X1.908 Y15.232 E0.02170
G1 X1.797 Y15.681 E0.02170
G1 X1.581 Y16.092 E0.02170
G1 X1.274 Y16.438 E0.02170
G1 X0.893 Y16.702 E0.02170
G1 X0.458 Y16.867 E0.02182
G1 X-0.045 Y16.916 E0.02365
G1 X-0.460 Y16.866 E0.01959
G1 X-0.893 Y16.702 E0.02170
G1 X-1.274 Y16.438 E0.02170
G1 X-1.581 Y16.092 E0.02170
G1 X-1.797 Y15.681 E0.02170
G1 X-1.908 Y15.232 E0.02170
G1 X-1.908 Y14.768 E0.02170
G1 X-1.797 Y14.319 E0.02170
G1 X-1.581 Y13.908 E0.02170
G1 X-1.322 Y13.615 E0.01834
G1 X-1.286 Y13.559 F6000.000
G1 E-1.50000 F3000.00000
G1 Z0.700 F6000.000
G1 X-12.679 Y14.994 F6000.000
G1 Z0.300 F6000.000
G1 E1.50000 F3000.00000
G1 F750
G1 X-12.746 Y15.556 E0.02953
G1 X-12.944 Y16.079 E0.02924
G1 X-13.262 Y16.540 E0.02924
G1 X-13.681 Y16.911 E0.02924
G1 X-14.177 Y17.171 E0.02924
G1 X-14.720 Y17.305 E0.02924
G1 X-15.280 Y17.305 E0.02924
G1 X-15.823 Y17.171 E0.02924
G1 X-16.319 Y16.911 E0.02924
G1 X-16.743 Y16.535 E0.02961
G1 X-17.074 Y16.032 E0.03142
G1 X-17.254 Y15.556 E0.02664
G1 X-17.322 Y15.000 E0.02924
G1 X-17.254 Y14.444 E0.02924
G1 X-17.056 Y13.921 E0.02924
G1 X-16.738 Y13.460 E0.02924
G1 X-16.319 Y13.089 E0.02924
G1 X-15.823 Y12.829 E0.02924
G1 X-15.280 Y12.695 E0.02924
G1 X-14.720 Y12.695 E0.02924
G1 X-14.170 Y12.831 E0.02961
G1 X-13.644 Y13.122 E0.03142
G1 X-13.262 Y13.460 E0.02664
G1 X-12.944 Y13.921 E0.02924
G1 X-12.746 Y14.444 E0.02924
G1 X-12.686 Y14.935 E0.02581
G1 X-13.080 Y14.983 F6000.000
G1 F750
G1 X-13.134 Y15.460 E0.02249
G1 X-13.298 Y15.893 E0.02170
G1 X-13.562 Y16.274 E0.02170
G1 X-13.908 Y16.581 E0.02170
G1 X-14.319 Y16.797 E0.02170
G1 X-14.768 Y16.908 E0.02170
G1 X-15.232 Y16.908 E0.02170
G1 X-15.681 Y16.797 E0.02170
G1 X-16.092 Y16.581 E0.02170
G1 X-16.440 Y16.273 E0.02182
G1 X-16.718 Y15.851 E0.02365
G1 X-16.866 Y15.460 E0.01958
G1 X-16.922 Y15.000 E0.02170
G1 X-16.866 Y14.540 E0.02170
G1 X-16.702 Y14.107 E0.02170
G1 X-16.438 Y13.726 E0.02170
G1 X-16.092 Y13.419 E0.02170
G1 X-15.681 Y13.203 E0.02170
G1 X-15.232 Y13.092 E0.02170
G1 X-14.768 Y13.092 E0.02170
G1 X-14.316 Y13.204 E0.02182
G1 X-13.874 Y13.449 E0.02365
G1 X-13.562 Y13.726 E0.01958
G1 X-13.298 Y14.107 E0.02170
G1 X-13.134 Y14.540 E0.02170
G1 X-13.088 Y14.923 E0.01808
G1 X-13.064 Y14.989 F6000.000
G1 E-1.50000 F3000.00000
G1 Z0.700 F6000.000
G1 X-14.720 Y2.305 F6000.000
G1 Z0.300 F6000.000
G1 E1.50000 F3000.00000
G1 F750
G1 X-15.280 Y2.305 E0.02924
G1 X-15.823 Y2.171 E0.02924
G1 X-16.319 Y1.911 E0.02924
G1 X-16.701 Y1.573 E0.02665
G1 X-17.053 Y1.086 E0.03141
G1 X-17.254 Y0.556 E0.02961
G1 X-17.322 Y0.000 E0.02924
G1 X-17.254 Y-0.556 E0.02924
G1 X-17.056 Y-1.079 E0.02924
G1 X-16.738 Y-1.540 E0.02924
G1 X-16.319 Y-1.911 E0.02924
G1 X-15.823 Y-2.171 E0.02924
G1 X-15.280 Y-2.305 E0.02924
G1 X-14.720 Y-2.305 E0.02924
G1 X-14.177 Y-2.171 E0.02924
G1 X-13.681 Y-1.911 E0.02924
G1 X-13.257 Y-1.535 E0.02961
G1 X-12.927 Y-1.033 E0.03141
G1 X-12.746 Y-0.556 E0.02665
G1 X-12.678 Y0.000 E0.02924
G1 X-12.746 Y0.556 E0.02924
G1 X-12.944 Y1.079 E0.02924
G1 X-13.262 Y1.540 E0.02924
G1 X-13.681 Y1.911 E0.02924
G1 X-14.177 Y2.171 E0.02924
G1 X-14.662 Y2.290 E0.02611
G1 X-14.757 Y1.905 F6000.000
G1 F750
G1 X-15.232 Y1.908 E0.02224
G1 X-15.681 Y1.797 E0.02170
G1 X-16.092 Y1.581 E0.02170
G1 X-16.405 Y1.304 E0.01959
G1 X-16.701 Y0.895 E0.02365
G1 X-16.866 Y0.460 E0.02182
G1 X-16.922 Y0.000 E0.02170
G1 X-16.866 Y-0.460 E0.02170
G1 X-16.702 Y-0.893 E0.02170
G1 X-16.438 Y-1.274 E0.02170
G1 X-16.092 Y-1.581 E0.02170
G1 X-15.681 Y-1.797 E0.02170
G1 X-15.232 Y-1.908 E0.02170
G1 X-14.768 Y-1.908 E0.02170
G1 X-14.319 Y-1.797 E0.02170
G1 X-13.908 Y-1.581 E0.02170
G1 X-13.560 Y-1.273 E0.02182
G1 X-13.283 Y-0.851 E0.02365
G1 X-13.134 Y-0.460 E0.01959
G1 X-13.078 Y0.000 E0.02170
G1 X-13.134 Y0.460 E0.02170
G1 X-13.298 Y0.893 E0.02170
G1 X-13.562 Y1.274 E0.02170
G1 X-13.908 Y1.581 E0.02170
G1 X-14.319 Y1.797 E0.02170
G1 X-14.699 Y1.890 E0.01834
G1 X-14.760 Y1.916 F6000.000
G1 E-1.50000 F3000.00000
G1 Z0.700 F6000.000
G1 X-10.367 Y1.890 F6000.000
G1 Z0.300 F6000.000
G1 E1.50000 F3000.00000
G1 F750
G1 X-10.367 Y-10.367 E0.64040
G1 X10.367 Y-10.367 E1.08327
G1 X10.367 Y10.367 E1.08327
G1 X-10.367 Y10.367 E1.08327
G1 X-10.367 Y1.950 E0.43974
G1 X-9.970 Y1.950 F6000.000
G1 F525
G1 X-9.970 Y-9.970 E0.55846
G1 X9.970 Y-9.970 E0.93418
G1 X9.970 Y9.970 E0.93418
G1 X-9.970 Y9.970 E0.93418
G1 X-9.970 Y2.010 E0.37290
G1 X-10.367 Y1.900 F6000.000
G1 E-1.50000 F3000.00000
G1 Z0.700 F6000.000
G1 X-14.177 Y-12.829 F6000.000
G1 Z0.300 F6000.000
G1 E1.50000 F3000.00000
G1 F750
G1 X-14.720 Y-12.695 E0.02924
G1 X-15.280 Y-12.695 E0.02924
G1 X-15.830 Y-12.831 E0.02961
G1 X-16.356 Y-13.122 E0.03142
G1 X-16.738 Y-13.460 E0.02664
G1 X-17.056 Y-13.921 E0.02924
G1 X-17.254 Y-14.444 E0.02924
G1 X-17.322 Y-15.000 E0.02924
G1 X-17.254 Y-15.556 E0.02924
G1 X-17.056 Y-16.079 E0.02924
G1 X-16.734 Y-16.545 E0.02961
G1 X-16.275 Y-16.934 E0.03142
G1 X-15.823 Y-17.171 E0.02664
G1 X-15.280 Y-17.305 E0.02924
G1 X-14.720 Y-17.305 E0.02924
G1 X-14.170 Y-17.169 E0.02961
G1 X-13.644 Y-16.878 E0.03142
G1 X-13.262 Y-16.540 E0.02664
G1 X-12.944 Y-16.079 E0.02924
G1 X-12.746 Y-15.556 E0.02924
G1 X-12.678 Y-15.000 E0.02924
G1 X-12.746 Y-14.444 E0.02924
G1 X-12.944 Y-13.921 E0.02924
G1 X-13.262 Y-13.460 E0.02924
G1 X-13.681 Y-13.089 E0.02924
G1 X-14.124 Y-12.857 E0.02611
G1 X-14.308 Y-13.209 F6000.000
G1 F750
G1 X-14.768 Y-13.092 E0.02224
G1 X-15.232 Y-13.092 E0.02170
G1 X-15.684 Y-13.204 E0.02182
G1 X-16.126 Y-13.449 E0.02365
G1 X-16.438 Y-13.726 E0.01958
G1 X-16.702 Y-14.107 E0.02170
G1 X-16.866 Y-14.540 E0.02170
G1 X-16.922 Y-15.000 E0.02170
G1 X-16.866 Y-15.460 E0.02170
G1 X-16.702 Y-15.893 E0.02170
G1 X-16.437 Y-16.276 E0.02182
G1 X-16.051 Y-16.603 E0.02365
G1 X-15.681 Y-16.797 E0.01958
G1 X-15.232 Y-16.908 E0.02170
G1 X-14.768 Y-16.908 E0.02170
G1 X-14.316 Y-16.796 E0.02182
G1 X-13.874 Y-16.551 E0.02365
G1 X-13.562 Y-16.274 E0.01958
G1 X-13.298 Y-15.893 E0.02170
G1 X-13.134 Y-15.460 E0.02170
G1 X-13.078 Y-15.000 E0.02170
G1 X-13.134 Y-14.540 E0.02170
G1 X-13.298 Y-14.107 E0.02170
G1 X-13.562 Y-13.726 E0.02170
G1 X-13.908 Y-13.419 E0.02170
G1 X-14.255 Y-13.237 E0.01834
G1 X-14.308 Y-13.197 F6000.000
G1 E-1.50000 F3000.00000
G1 Z0.700 F6000.000
G1 X-2.305 Y-14.720 F6000.000
G1 Z0.300 F6000.000
G1 E1.50000 F3000.00000
G1 F750
G1 X-2.305 Y-15.280 E0.02924
G1 X-2.171 Y-15.823 E0.02924
G1 X-1.911 Y-16.319 E0.02924
G1 X-1.540 Y-16.738 E0.02924
G1 X-1.079 Y-17.056 E0.02924
G1 X-0.556 Y-17.254 E0.02924
G1 X-0.049 Y-17.316 E0.02665
G1 X0.549 Y-17.257 E0.03141
G1 X1.079 Y-17.056 E0.02961
G1 X1.540 Y-16.738 E0.02924
G1 X1.911 Y-16.319 E0.02924
G1 X2.171 Y-15.823 E0.02924
G1 X2.305 Y-15.280 E0.02924
G1 X2.305 Y-14.720 E0.02924
G1 X2.171 Y-14.177 E0.02924
G1 X1.911 Y-13.681 E0.02924
G1 X1.535 Y-13.257 E0.02961
G1 X1.033 Y-12.927 E0.03141
G1 X0.556 Y-12.746 E0.02665
G1 X-0.000 Y-12.678 E0.02924
G1 X-0.556 Y-12.746 E0.02924
G1 X-1.079 Y-12.944 E0.02924
G1 X-1.540 Y-13.262 E0.02924
G1 X-1.911 Y-13.681 E0.02924
G1 X-2.171 Y-14.177 E0.02924
G1 X-2.290 Y-14.662 E0.02611
G1 X-1.905 Y-14.757 F6000.000
G1 F750
G1 X-1.908 Y-15.232 E0.02224
G1 X-1.797 Y-15.681 E0.02170
G1 X-1.581 Y-16.092 E0.02170
G1 X-1.274 Y-16.438 E0.02170
G1 X-0.893 Y-16.702 E0.02170
G1 X-0.460 Y-16.866 E0.02170
G1 X-0.045 Y-16.916 E0.01959
G1 X0.458 Y-16.867 E0.02365
G1 X0.893 Y-16.702 E0.02182
G1 X1.274 Y-16.438 E0.02170
G1 X1.581 Y-16.092 E0.02170
G1 X1.797 Y-15.681 E0.02170
G1 X1.908 Y-15.232 E0.02170
G1 X1.908 Y-14.768 E0.02170
G1 X1.797 Y-14.319 E0.02170
G1 X1.581 Y-13.908 E0.02170
G1 X1.273 Y-13.560 E0.02182
G1 X0.851 Y-13.283 E0.02365
G1 X0.460 Y-13.134 E0.01959
G1 X-0.000 Y-13.078 E0.02170
G1 X-0.460 Y-13.134 E0.02170
G1 X-0.893 Y-13.298 E0.02170
G1 X-1.274 Y-13.562 E0.02170
G1 X-1.581 Y-13.908 E0.02170
G1 X-1.797 Y-14.319 E0.02170
G1 X-1.890 Y-14.699 E0.01834
G1 X-1.916 Y-14.760 F6000.000
G1 E-1.50000 F3000.00000
G1 Z0.700 F6000.000
G1 X-2.749 Y-14.666 F6000.000
G1 X-5.117 Y-13.424 F6000.000
G1 X-3.153 Y-12.236 F6000.000
G1 X-2.235 Y-11.875 F6000.000
G1 X0.271 Y-11.515 F6000.000
G1 X2.168 Y-11.863 F6000.000
G1 X4.275 Y-12.843 F6000.000
G1 X6.832 Y-14.894 F6000.000
G1 X7.527 Y-15.562 F6000.000
G1 X7.550 Y-15.894 F6000.000
G1 X12.695 Y-14.720 F6000.000
G1 Z0.300 F6000.000
G1 E1.50000 F3000.00000
G1 F750
G1 X12.695 Y-15.280 E0.02924
G1 X12.829 Y-15.823 E0.02924
G1 X13.089 Y-16.319 E0.02924
G1 X13.460 Y-16.738 E0.02924
G1 X13.927 Y-17.060 E0.02961
G1 X14.494 Y-17.260 E0.03142
G1 X15.000 Y-17.322 E0.02664
G1 X15.556 Y-17.254 E0.02924
G1 X16.079 Y-17.056 E0.02924
G1 X16.540 Y-16.738 E0.02924
G1 X16.911 Y-16.319 E0.02924
G1 X17.171 Y-15.823 E0.02924
G1 X17.305 Y-15.280 E0.02924
G1 X17.305 Y-14.720 E0.02924
G1 X17.171 Y-14.177 E0.02924
G1 X16.911 Y-13.681 E0.02924
G1 X16.540 Y-13.262 E0.02924
G1 X16.079 Y-12.944 E0.02924
G1 X15.556 Y-12.746 E0.02924
G1 X15.000 Y-12.678 E0.02924
G1 X14.444 Y-12.746 E0.02924
G1 X13.921 Y-12.944 E0.02924
G1 X13.460 Y-13.262 E0.02924
G1 X13.089 Y-13.681 E0.02924
G1 X12.829 Y-14.177 E0.02924
G1 X12.710 Y-14.662 E0.02611
G1 X13.095 Y-14.757 F6000.000
G1 F750
G1 X13.092 Y-15.232 E0.02224
G1 X13.203 Y-15.681 E0.02170
G1 X13.419 Y-16.092 E0.02170
G1 X13.726 Y-16.438 E0.02170
G1 X14.109 Y-16.703 E0.02182
G1 X14.585 Y-16.871 E0.02365
G1 X15.000 Y-16.922 E0.01958
G1 X15.460 Y-16.866 E0.02170
G1 X15.893 Y-16.702 E0.02170
G1 X16.274 Y-16.438 E0.02170
G1 X16.581 Y-16.092 E0.02170
G1 X16.797 Y-15.681 E0.02170
G1 X16.908 Y-15.232 E0.02170
G1 X16.908 Y-14.768 E0.02170
G1 X16.797 Y-14.319 E0.02170
G1 X16.581 Y-13.908 E0.02170
G1 X16.274 Y-13.562 E0.02170
G1 X15.893 Y-13.298 E0.02170
G1 X15.460 Y-13.134 E0.02170
G1 X15.000 Y-13.078 E0.02170
G1 X14.540 Y-13.134 E0.02170
G1 X14.107 Y-13.298 E0.02170
G1 X13.726 Y-13.562 E0.02170
G1 X13.419 Y-13.908 E0.02170
G1 X13.203 Y-14.319 E0.02170
G1 X13.110 Y-14.699 E0.01834
G1 X13.084 Y-14.760 F6000.000
G1 E-1.50000 F3000.00000
G1 Z0.700 F6000.000
G1 X14.720 Y-2.305 F6000.000
G1 Z0.300 F6000.000
G1 E1.50000 F3000.00000
G1 F750
G1 X15.280 Y-2.305 E0.02924
G1 X15.823 Y-2.171 E0.02924
G1 X16.319 Y-1.911 E0.02924
G1 X16.743 Y-1.535 E0.02961
G1 X17.073 Y-1.033 E0.03141
G1 X17.254 Y-0.556 E0.02665
G1 X17.322 Y0.000 E0.02924
G1 X17.254 Y0.556 E0.02924
G1 X17.056 Y1.079 E0.02924
G1 X16.738 Y1.540 E0.02924
G1 X16.319 Y1.911 E0.02924
G1 X15.823 Y2.171 E0.02924
G1 X15.280 Y2.305 E0.02924
G1 X14.720 Y2.305 E0.02924
G1 X14.177 Y2.171 E0.02924
G1 X13.681 Y1.911 E0.02924
G1 X13.257 Y1.535 E0.02961
G1 X12.927 Y1.033 E0.03141
G1 X12.746 Y0.556 E0.02665
G1 X12.678 Y-0.000 E0.02924
G1 X12.746 Y-0.556 E0.02924
G1 X12.944 Y-1.079 E0.02924
G1 X13.262 Y-1.540 E0.02924
G1 X13.681 Y-1.911 E0.02924
G1 X14.177 Y-2.171 E0.02924
G1 X14.662 Y-2.290 E0.02611
G1 X14.757 Y-1.905 F6000.000
G1 F750
G1 X15.232 Y-1.908 E0.02224
G1 X15.681 Y-1.797 E0.02170
G1 X16.092 Y-1.581 E0.02170
G1 X16.440 Y-1.273 E0.02182
G1 X16.717 Y-0.851 E0.02365
G1 X16.866 Y-0.460 E0.01959
G1 X16.922 Y0.000 E0.02170
G1 X16.866 Y0.460 E0.02170
G1 X16.702 Y0.893 E0.02170
G1 X16.438 Y1.274 E0.02170
G1 X16.092 Y1.581 E0.02170
G1 X15.681 Y1.797 E0.02170
G1 X15.232 Y1.908 E0.02170
G1 X14.768 Y1.908 E0.02170
G1 X14.319 Y1.797 E0.02170
G1 X13.908 Y1.581 E0.02170
G1 X13.560 Y1.273 E0.02182
G1 X13.283 Y0.851 E0.02365
G1 X13.134 Y0.460 E0.01959
G1 X13.078 Y-0.000 E0.02170
G1 X13.134 Y-0.460 E0.02170
G1 X13.298 Y-0.893 E0.02170
G1 X13.562 Y-1.274 E0.02170
G1 X13.908 Y-1.581 E0.02170
G1 X14.319 Y-1.797 E0.02170
G1 X14.699 Y-1.890 E0.01834
G1 X14.760 Y-1.916 F6000.000
G1 E-1.50000 F3000.00000
G1 Z0.700 F6000.000
G1 X14.606 Y-2.718 F6000.000
G1 X13.383 Y-5.049 F6000.000
G1 X12.236 Y-3.153 F6000.000
G1 X11.875 Y-2.235 F6000.000
G1 X11.515 Y0.271 F6000.000
G1 X11.863 Y2.168 F6000.000
G1 X12.843 Y4.275 F6000.000
G1 X13.679 Y5.460 F6000.000
G1 X15.575 Y7.539 F6000.000
G1 X15.135 Y7.929 F6000.000
G1 X14.606 Y12.282 F6000.000
G1 X14.720 Y12.695 F6000.000
G1 Z0.300 F6000.000
G1 E1.50000 F3000.00000
G1 F750
G1 X15.280 Y12.695 E0.02924
G1 X15.823 Y12.829 E0.02924
G1 X16.319 Y13.089 E0.02924
G1 X16.738 Y13.460 E0.02924
G1 X17.056 Y13.921 E0.02924
G1 X17.254 Y14.444 E0.02924
G1 X17.322 Y15.000 E0.02924
G1 X17.254 Y15.556 E0.02924
G1 X17.056 Y16.079 E0.02924
G1 X16.738 Y16.540 E0.02924
G1 X16.319 Y16.911 E0.02924
G1 X15.867 Y17.148 E0.02664
G1 X15.287 Y17.305 E0.03142
G1 X14.720 Y17.305 E0.02961
G1 X14.177 Y17.171 E0.02924
G1 X13.681 Y16.911 E0.02924
G1 X13.262 Y16.540 E0.02924
G1 X12.944 Y16.079 E0.02924
G1 X12.746 Y15.556 E0.02924
