; generated by Slic3r 1.2.9 on 2019-12-03 at 12:13:58

; external perimeters extrusion width = 0.40mm
; perimeters extrusion width = 0.40mm
; infill extrusion width = 0.40mm
; solid infill extrusion width = 0.40mm
; top infill extrusion width = 0.40mm

M107
M83
T0
M116
G21 ; set units to millimeters
G90 ; use absolute coordinates
M83 ; use relative distances for extrusion
G1 E-4.20000 F1500.00000
G1 Z1.000 F15000.000
G1 X13.770 Y0.000 F15000.000
G1 Z0.300 F15000.000
G1 E4.20000 F1500.00000
G1 X13.770 Y21.352 E1.64548 F960.000
G1 X13.375 Y22.999 E0.13052
G1 X12.277 Y24.288 E0.13052
G1 X10.134 Y24.987 E0.17373
G1 X5.145 Y24.986 E0.38445
G1 X-6.555 Y24.701 E0.90197
G1 X-8.494 Y24.084 E0.15676
G1 X-13.556 Y20.684 E0.46994
G1 X-14.703 Y19.439 E0.13052
G1 X-15.164 Y17.666 E0.14113
G1 X-15.164 Y-12.834 E2.35050
G1 X-14.307 Y-15.178 E0.19236
G1 X-9.245 Y-21.178 E0.60498
G1 X-7.882 Y-22.183 E0.13052
G1 X-6.466 Y-22.469 E0.11127
G1 X-1.478 Y-22.468 E0.38445
G1 X10.223 Y-22.183 E0.90197 F960.000
G1 X11.860 Y-21.748 E0.13052
G1 X13.122 Y-20.619 E0.13052
G1 X13.770 Y-18.548 E0.16722
G1 X13.770 Y-0.060 E1.42481
G1 E-4.20000 F1500.00000
G1 Z1.300 F15000.000
G1 X-5.481 Y1.263 F15000.000
G1 Z0.300 F15000.000
G1 E4.20000 F1500.00000
G1 X-5.481 Y-4.848 E0.47098 F600.000
G1 X-2.552 Y-4.848 E0.22571
G1 X-2.552 Y4.481 E0.71893
G1 X-5.481 Y4.481 E0.22571 F600.000
G1 X-5.481 Y1.323 E0.24332
G1 E-4.20000 F1500.00000
G1 Z1.300 F15000.000
G1 X-4.816 Y-14.919 F15000.000
G1 Z0.300 F15000.000
G1 E4.20000 F1500.00000
G1 X-5.481 Y-14.919 E0.05124 F600.000
G1 X-5.481 Y-17.848 E0.22571
G1 X-2.552 Y-17.848 E0.22571
G1 X-2.552 Y-14.919 E0.22571
G1 X-4.756 Y-14.919 E0.16984 F600.000
G1 X-4.756 Y-14.284 F15000.000
G1 X-6.116 Y-14.284 E0.10485 F720.000
G1 X-6.116 Y-18.484 E0.32368
G1 X-1.916 Y-18.484 E0.32368
G1 X-1.916 Y20.716 E3.02097
G1 X-6.116 Y20.716 E0.32368 F720.000
G1 X-6.116 Y19.116 E0.12330
G1 X-3.116 Y19.116 E0.23120
G1 X-3.116 Y17.316 E0.13872
G1 X-11.179 Y17.316 E0.62131
G1 X-11.179 Y16.116 E0.09248
G1 X-3.116 Y16.116 E0.62131
G1 X-3.116 Y8.116 E0.61652
G1 X-11.179 Y8.116 E0.62131
G1 X-11.179 Y6.916 E0.09248
G1 X-3.116 Y6.916 E0.62131
G1 X-3.116 Y5.116 E0.13872
G1 X-6.116 Y5.116 E0.23120
G1 X-6.116 Y-5.484 E0.81689
G1 X-3.116 Y-5.484 E0.23120
G1 X-3.116 Y-7.284 E0.13872
G1 X-11.179 Y-7.284 E0.62131
G1 X-11.179 Y-8.484 E0.09248
G1 X-3.116 Y-8.484 E0.62131
G1 X-3.116 Y-11.284 E0.21578
G1 X-11.179 Y-11.284 E0.62131
G1 X-11.179 Y-12.484 E0.09248
G1 X-3.116 Y-12.484 E0.62131
G1 X-3.116 Y-14.284 E0.13872
G1 X-4.696 Y-14.284 E0.12172
G1 X-4.956 Y-14.630 F15000.000
G1 X-5.095 Y-15.614 F15000.000
G1 X-4.786 Y-15.305 E0.03470 F960.000
G1 X-3.862 Y-15.305 E0.07322
G1 X-5.095 Y-16.539 E0.13824
G1 X-5.075 Y-17.443 E0.07165
G1 X-2.957 Y-15.325 E0.23730
G1 X-2.937 Y-16.229 E0.07165
G1 X-4.171 Y-17.463 E0.13824
G1 X-3.247 Y-17.463 E0.07322
G1 X-2.937 Y-17.153 E0.03470
G1 X-2.516 Y-14.601 F15000.000
G1 X-2.516 Y-12.166 E0.39441 F960.000
G1 X-2.587 Y-11.884 E0.04710
G1 X-2.516 Y-11.601 E0.04710
G1 X-2.516 Y-8.166 E0.55635
G1 X-2.587 Y-7.884 E0.04710
G1 X-2.516 Y-7.601 E0.04710
G1 X-2.516 Y-5.166 E0.39441
G1 X-2.937 Y-4.153 F15000.000
G1 X-3.247 Y-4.463 E0.03446 F960.000
G1 X-4.165 Y-4.463 E0.07223
G1 X-2.937 Y-3.235 E0.13661
G1 X-2.937 Y-2.317 E0.07223
G1 X-5.069 Y-4.449 E0.23722
G1 X-5.095 Y-3.557 E0.07019
G1 X-2.937 Y-1.399 E0.24015
G1 X-2.937 Y-0.482 E0.07223
G1 X-5.095 Y-2.639 E0.24015
G1 X-5.095 Y-1.722 E0.07223
G1 X-2.937 Y0.436 E0.24015
G1 X-2.937 Y1.354 E0.07223
G1 X-5.095 Y-0.804 E0.24015
G1 X-5.095 Y0.114 E0.07223
G1 X-2.937 Y2.272 E0.24015
G1 X-2.937 Y3.190 E0.07223
G1 X-5.095 Y1.032 E0.24015
G1 X-5.095 Y1.950 E0.07223
G1 X-2.964 Y4.082 E0.23722
G1 X-3.868 Y4.095 E0.07116
G1 X-5.095 Y2.868 E0.13661
G1 X-5.095 Y3.786 E0.07223
G1 X-4.786 Y4.095 E0.03446
G1 X-2.516 Y4.799 F15000.000
G1 X-2.516 Y7.234 E0.39441 F960.000
G1 X-2.587 Y7.516 E0.04710
G1 X-2.516 Y7.799 E0.04710
G1 X-2.516 Y16.434 E1.39842
G1 X-2.587 Y16.716 E0.04710
G1 X-2.516 Y16.999 E0.04710
G1 X-2.516 Y19.434 E0.39442
G1 X-2.720 Y19.913 E0.08425
G1 X-5.799 Y19.916 E0.49860
G1 E-4.20000 F1500.00000
G1 Z1.300 F15000.000
G1 X-2.234 Y16.716 F15000.000
G1 Z0.300 F15000.000
G1 E4.20000 F1500.00000
G1 X-10.861 Y16.716 E1.39695 F960.000
G1 E-4.20000 F1500.00000
G1 Z1.300 F15000.000
G1 X-10.861 Y7.516 F15000.000
G1 Z0.300 F15000.000
G1 E4.20000 F1500.00000
G1 X-2.234 Y7.516 E1.39695 F960.000
G1 X-2.234 Y-7.884 F15000.000
G1 X-10.861 Y-7.884 E1.39695 F960.000
G1 E-4.20000 F1500.00000
G1 Z1.300 F15000.000
G1 X-10.861 Y-11.884 F15000.000
G1 Z0.300 F15000.000
G1 E4.20000 F1500.00000
G1 X-2.234 Y-11.884 E1.39695 F960.000
G1 E-4.20000 F1500.00000
G1 Z1.300 F15000.000
G1 X6.220 Y1.477 F15000.000
G1 Z0.300 F15000.000
G1 E4.20000 F1500.00000
G1 X6.220 Y-4.563 E0.46546 F600.000
G1 X9.148 Y-4.563 E0.22571
G1 X9.148 Y4.766 E0.71893
G1 X6.220 Y4.766 E0.22571 F600.000
G1 X6.220 Y1.537 E0.24885
G1 E-4.20000 F1500.00000
G1 Z1.300 F15000.000
G1 X8.167 Y-14.634 F15000.000
G1 Z0.300 F15000.000
G1 E4.20000 F1500.00000
G1 X6.220 Y-14.634 E0.15007 F600.000
G1 X6.220 Y-17.563 E0.22571
G1 X9.148 Y-17.563 E0.22571
G1 X9.148 Y-14.634 E0.22571
G1 X8.227 Y-14.634 E0.07101 F600.000
G1 X8.227 Y-13.998 F15000.000
G1 X5.584 Y-13.998 E0.20368 F720.000
G1 X5.584 Y-18.198 E0.32368
G1 X9.784 Y-18.198 E0.32368
G1 X9.784 Y21.002 E3.02097
G1 X5.584 Y21.002 E0.32368 F720.000
G1 X5.584 Y19.402 E0.12330
G1 X8.584 Y19.402 E0.23120
G1 X8.584 Y17.602 E0.13872
G1 X0.522 Y17.602 E0.62131
G1 X0.522 Y16.402 E0.09248
G1 X8.584 Y16.402 E0.62131
G1 X8.584 Y8.402 E0.61652
G1 X0.522 Y8.402 E0.62131
G1 X0.522 Y7.202 E0.09248
G1 X8.584 Y7.202 E0.62131
G1 X8.584 Y5.402 E0.13872
G1 X5.584 Y5.402 E0.23120
G1 X5.584 Y-5.198 E0.81689
G1 X8.584 Y-5.198 E0.23120
G1 X8.584 Y-6.998 E0.13872
G1 X0.522 Y-6.998 E0.62131
G1 X0.522 Y-8.198 E0.09248
G1 X8.584 Y-8.198 E0.62131
G1 X8.584 Y-10.998 E0.21578
G1 X0.522 Y-10.998 E0.62131
G1 X0.522 Y-12.198 E0.09248
G1 X8.584 Y-12.198 E0.62131
G1 X8.584 Y-13.998 E0.13872
G1 X8.287 Y-13.998 E0.02289
G1 X8.027 Y-14.345 F15000.000
G1 X9.184 Y-14.316 F15000.000
G1 X9.184 Y-11.881 E0.39441 F960.000
G1 X9.113 Y-11.598 E0.04710
G1 X9.184 Y-11.316 E0.04710
G1 X9.184 Y-7.881 E0.55635
G1 X9.113 Y-7.598 E0.04710
G1 X9.184 Y-7.316 E0.04710
G1 X9.184 Y-4.881 E0.39441
G1 X8.763 Y-3.868 F15000.000
G1 X8.453 Y-4.177 E0.03446 F960.000
G1 X7.535 Y-4.177 E0.07223
G1 X8.763 Y-2.950 E0.13661
G1 X8.763 Y-2.032 E0.07223
G1 X6.631 Y-4.164 E0.23722
G1 X6.605 Y-3.272 E0.07019
G1 X8.763 Y-1.114 E0.24015
G1 X8.763 Y-0.196 E0.07223
G1 X6.605 Y-2.354 E0.24015
G1 X6.605 Y-1.436 E0.07223
G1 X8.763 Y0.722 E0.24015
G1 X8.763 Y1.640 E0.07223
G1 X6.605 Y-0.518 E0.24015
G1 X6.605 Y0.399 E0.07223
G1 X8.763 Y2.557 E0.24015
G1 X8.763 Y3.475 E0.07223
G1 X6.605 Y1.317 E0.24015
G1 X6.605 Y2.235 E0.07223
G1 X8.737 Y4.367 E0.23722
G1 X7.833 Y4.381 E0.07116
G1 X6.605 Y3.153 E0.13661
G1 X6.605 Y4.071 E0.07223
G1 X6.915 Y4.381 E0.03446
G1 X9.184 Y5.084 F15000.000
G1 X9.184 Y7.519 E0.39441 F960.000
G1 X9.113 Y7.802 E0.04710
G1 X9.184 Y8.084 E0.04710
G1 X9.184 Y16.719 E1.39842
G1 X9.113 Y17.002 E0.04710
G1 X9.184 Y17.284 E0.04710
G1 X9.184 Y19.719 E0.39442
G1 X8.981 Y20.198 E0.08425
G1 X5.902 Y20.202 E0.49860
G1 E-4.20000 F1500.00000
G1 Z1.300 F15000.000
G1 X9.466 Y17.002 F15000.000
G1 Z0.300 F15000.000
G1 E4.20000 F1500.00000
G1 X0.840 Y17.002 E1.39695 F960.000
G1 E-4.20000 F1500.00000
G1 Z1.300 F15000.000
G1 X0.840 Y7.802 F15000.000
G1 Z0.300 F15000.000
G1 E4.20000 F1500.00000
G1 X9.466 Y7.802 E1.39695 F960.000
G1 X9.466 Y-7.598 F15000.000
G1 X0.840 Y-7.598 E1.39695 F960.000
G1 E-4.20000 F1500.00000
G1 Z1.300 F15000.000
G1 X0.840 Y-11.598 F15000.000
G1 Z0.300 F15000.000
G1 E4.20000 F1500.00000
G1 X9.466 Y-11.598 E1.39695 F960.000
G1 E-4.20000 F1500.00000
G1 Z1.300 F15000.000
G1 X6.605 Y-15.329 F15000.000
G1 Z0.300 F15000.000
G1 E4.20000 F1500.00000
G1 X6.915 Y-15.019 E0.03470 F960.000
G1 X7.839 Y-15.019 E0.07322
G1 X6.605 Y-16.253 E0.13824
G1 X6.625 Y-17.157 E0.07165
G1 X8.743 Y-15.039 E0.23730
G1 X8.763 Y-15.944 E0.07165
G1 X7.529 Y-17.177 E0.13824
G1 X8.453 Y-17.177 E0.07322
G1 X8.763 Y-16.868 E0.03470
G1 E-4.20000 F1500.00000
G1 Z1.300 F15000.000
G1 X-2.124 Y-2.306 F15000.000
G1 Z0.500 F15000.000
G1 E4.20000 F1500.00000
G1 X-2.124 Y20.509 E0.65852 F2400.000
G1 X-5.909 Y20.509 E0.10927 F2400.000
G1 X-5.909 Y19.323 E0.03423
G1 X-2.909 Y19.323 E0.08659
G1 X-2.909 Y17.109 E0.06391
G1 X-11.075 Y17.109 E0.23568
G1 X-11.075 Y16.323 E0.02268
G1 X-2.909 Y16.323 E0.23568
G1 X-2.909 Y7.909 E0.24286
G1 X-11.075 Y7.909 E0.23568
G1 X-11.075 Y7.123 E0.02268
G1 X-2.909 Y7.123 E0.23568
G1 X-2.909 Y4.909 E0.06391
G1 X-5.909 Y4.909 E0.08659
G1 X-5.909 Y-5.277 E0.29399
G1 X-2.909 Y-5.277 E0.08659
G1 X-2.909 Y-7.491 E0.06391
G1 X-11.075 Y-7.491 E0.23568
G1 X-11.075 Y-8.277 E0.02268
G1 X-2.909 Y-8.277 E0.23568
G1 X-2.909 Y-11.491 E0.09277
G1 X-11.075 Y-11.491 E0.23568
G1 X-11.075 Y-12.277 E0.02268
G1 X-2.909 Y-12.277 E0.23568
G1 X-2.909 Y-14.491 E0.06391
G1 X-5.909 Y-14.491 E0.08659
G1 X-5.909 Y-18.277 E0.10927
G1 X-2.124 Y-18.277 E0.10927
G1 X-2.124 Y-2.366 E0.45921
G1 X-1.766 Y-2.366 F15000.000
G1 X-1.766 Y20.866 E0.67056 F2400.000
G1 X-6.266 Y20.866 E0.12988 F2400.000
G1 X-6.266 Y18.966 E0.05484
G1 X-3.266 Y18.966 E0.08659
G1 X-3.266 Y17.466 E0.04329
G1 X-11.432 Y17.466 E0.23568
G1 X-11.432 Y15.966 E0.04329
G1 X-3.266 Y15.966 E0.23568
G1 X-3.266 Y8.266 E0.22224
G1 X-11.432 Y8.266 E0.23568
G1 X-11.432 Y6.766 E0.04329
G1 X-3.266 Y6.766 E0.23568
G1 X-3.266 Y5.266 E0.04329
G1 X-6.266 Y5.266 E0.08659
G1 X-6.266 Y-5.634 E0.31460
G1 X-3.266 Y-5.634 E0.08659
G1 X-3.266 Y-7.134 E0.04329
G1 X-11.432 Y-7.134 E0.23568
G1 X-11.432 Y-8.634 E0.04329
G1 X-3.266 Y-8.634 E0.23568
G1 X-3.266 Y-11.134 E0.07216
G1 X-11.432 Y-11.134 E0.23568
G1 X-11.432 Y-12.634 E0.04329
G1 X-3.266 Y-12.634 E0.23568
G1 X-3.266 Y-14.134 E0.04329
G1 X-6.266 Y-14.134 E0.08659
G1 X-6.266 Y-18.634 E0.12988
G1 X-1.766 Y-18.634 E0.12988
G1 X-1.766 Y-2.426 E0.46779
G1 X-2.113 Y-2.166 F15000.000
G1 X-2.516 Y-5.098 F15000.000
G1 X-2.516 Y-7.669 E0.15735 F2573.073
G1 X-2.570 Y-7.884 E0.01352
G1 X-2.516 Y-8.098 E0.01352
G1 X-2.516 Y-11.669 E0.21854
G1 X-2.570 Y-11.884 E0.01352
G1 X-2.516 Y-12.098 E0.01352
G1 X-2.516 Y-14.669 E0.15735
G1 X-2.523 Y-14.877 F15000.000
G1 X-2.331 Y-15.069 E0.00797 F2573.073
G1 X-2.331 Y-15.583 E0.01515
G1 X-3.038 Y-14.877 E0.02940
G1 X-3.731 Y-14.699 E0.02107
G1 X-2.331 Y-16.098 E0.05827
G1 X-2.331 Y-16.613 E0.01515
G1 X-4.246 Y-14.699 E0.07970
G1 X-4.761 Y-14.699 E0.01515
G1 X-2.331 Y-17.128 E0.10113
G1 X-2.331 Y-17.643 E0.01515
G1 X-5.276 Y-14.699 E0.12256
G1 X-5.702 Y-14.788 E0.01280
G1 X-2.421 Y-18.069 E0.13656
G1 X-2.935 Y-18.069 E0.01515
G1 X-5.702 Y-15.303 E0.11513
G1 X-5.702 Y-15.818 E0.01515
G1 X-3.450 Y-18.069 E0.09370
G1 X-3.965 Y-18.069 E0.01515
G1 X-5.702 Y-16.333 E0.07227
G1 X-5.702 Y-16.848 E0.01515
G1 X-4.480 Y-18.069 E0.05083
G1 X-4.995 Y-18.069 E0.01515
G1 X-5.702 Y-17.362 E0.02940
G1 X-5.702 Y-17.877 E0.01515
G1 X-5.510 Y-18.069 E0.00797
G1 X-2.302 Y-11.884 F15000.000
G1 X-10.897 Y-11.884 E0.52593 F2573.073
G1 E-4.20000 F1500.00000
G1 Z1.500 F15000.000
G1 X-10.897 Y-7.884 F15000.000
G1 Z0.500 F15000.000
G1 E4.20000 F1500.00000
G1 X-2.302 Y-7.884 E0.52593 F2573.073
G1 E-4.20000 F1500.00000
G1 Z1.500 F15000.000
G1 X-5.510 Y-5.069 F15000.000
G1 Z0.500 F15000.000
G1 E4.20000 F1500.00000
G1 X-5.702 Y-4.877 E0.00811 F2573.073
G1 X-5.702 Y-4.353 E0.01570
G1 X-4.986 Y-5.069 E0.03032
G1 X-4.462 Y-5.069 E0.01570
G1 X-5.702 Y-3.829 E0.05252
G1 X-5.702 Y-3.305 E0.01570
G1 X-3.938 Y-5.069 E0.07473
G1 X-3.414 Y-5.069 E0.01570
G1 X-5.702 Y-2.781 E0.09693
G1 X-5.702 Y-2.257 E0.01570
G1 X-3.068 Y-4.890 E0.11157
G1 X-2.544 Y-4.890 E0.01570
G1 X-5.702 Y-1.733 E0.13378
G1 X-5.702 Y-1.208 E0.01570
G1 X-2.331 Y-4.579 E0.14279
G1 X-2.331 Y-4.055 E0.01570
G1 X-5.702 Y-0.684 E0.14279
G1 X-5.702 Y-0.160 E0.01570
G1 X-2.331 Y-3.531 E0.14279
G1 X-2.331 Y-3.006 E0.01570
G1 X-5.702 Y0.364 E0.14279
G1 X-5.702 Y0.888 E0.01570
G1 X-2.331 Y-2.482 E0.14279
G1 X-2.331 Y-1.958 E0.01570
G1 X-5.702 Y1.412 E0.14279
G1 X-5.702 Y1.936 E0.01570
G1 X-2.331 Y-1.434 E0.14279
G1 X-2.331 Y-0.910 E0.01570
G1 X-5.702 Y2.460 E0.14279
G1 X-5.702 Y2.985 E0.01570
G1 X-2.331 Y-0.386 E0.14279
G1 X-2.331 Y0.138 E0.01570
G1 X-5.702 Y3.509 E0.14279
G1 X-5.702 Y4.033 E0.01570
G1 X-2.331 Y0.663 E0.14279
G1 X-2.331 Y1.187 E0.01570
G1 X-5.702 Y4.557 E0.14279
G1 X-5.322 Y4.701 E0.01217
G1 X-2.331 Y1.711 E0.12670
G1 X-2.331 Y2.235 E0.01570
G1 X-4.798 Y4.701 E0.10450
G1 X-4.274 Y4.701 E0.01570
G1 X-2.331 Y2.759 E0.08229
G1 X-2.331 Y3.283 E0.01570
G1 X-3.750 Y4.701 E0.06009
G1 X-3.047 Y4.523 E0.02172
G1 X-2.331 Y3.807 E0.03032
G1 X-2.331 Y4.331 E0.01570
G1 X-2.523 Y4.523 E0.00811
G1 X-2.516 Y4.731 F15000.000
G1 X-2.516 Y7.302 E0.15735 F2573.073
G1 X-2.570 Y7.516 E0.01352
G1 X-2.516 Y7.731 E0.01352
G1 X-2.516 Y16.502 E0.53675
G1 X-2.570 Y16.716 E0.01352
G1 X-2.516 Y16.931 E0.01352
G1 X-2.516 Y19.502 E0.15735
G1 X-2.523 Y20.301 F15000.000
G1 X-2.331 Y20.110 E0.00831 F2573.073
G1 X-2.468 Y19.710 E0.01298
G1 X-3.060 Y20.301 E0.02568
G1 X-3.596 Y20.301 E0.01647
G1 X-3.005 Y19.710 E0.02568
G1 X-3.363 Y19.531 E0.01228
G1 X-4.133 Y20.301 E0.03343
G1 X-4.670 Y20.301 E0.01647
G1 X-3.900 Y19.531 E0.03343
G1 X-4.436 Y19.531 E0.01647
G1 X-5.207 Y20.301 E0.03343
G1 X-5.702 Y20.259 E0.01524
G1 X-4.973 Y19.531 E0.03160
G1 X-5.510 Y19.531 E0.01647
G1 X-5.702 Y19.723 E0.00831
G1 E-4.20000 F1500.00000
G1 Z1.500 F15000.000
G1 X-2.302 Y16.716 F15000.000
G1 Z0.500 F15000.000
G1 E4.20000 F1500.00000
G1 X-10.897 Y16.716 E0.52593 F2573.073
G1 E-4.20000 F1500.00000
G1 Z1.500 F15000.000
G1 X-10.897 Y7.516 F15000.000
G1 Z0.500 F15000.000
G1 E4.20000 F1500.00000
G1 X-2.302 Y7.516 E0.52593 F2573.073
G1 E-4.20000 F1500.00000
G1 Z1.500 F15000.000
G1 X9.577 Y-0.451 F15000.000
G1 Z0.500 F15000.000
G1 E4.20000 F1500.00000
G1 X9.577 Y20.795 E0.61322 F2400.000
G1 X5.791 Y20.795 E0.10927 F2400.000
G1 X5.791 Y19.609 E0.03423
G1 X8.791 Y19.609 E0.08659
G1 X8.791 Y17.395 E0.06391
G1 X0.625 Y17.395 E0.23568
G1 X0.625 Y16.609 E0.02268
G1 X8.791 Y16.609 E0.23568
G1 X8.791 Y8.195 E0.24286
G1 X0.625 Y8.195 E0.23568
G1 X0.625 Y7.409 E0.02268
G1 X8.791 Y7.409 E0.23568
G1 X8.791 Y5.195 E0.06391
G1 X5.791 Y5.195 E0.08659
G1 X5.791 Y-4.991 E0.29399
G1 X8.791 Y-4.991 E0.08659
G1 X8.791 Y-7.205 E0.06391
G1 X0.625 Y-7.205 E0.23568
G1 X0.625 Y-7.991 E0.02268
G1 X8.791 Y-7.991 E0.23568
G1 X8.791 Y-11.205 E0.09277
G1 X0.625 Y-11.205 E0.23568
G1 X0.625 Y-11.991 E0.02268
G1 X8.791 Y-11.991 E0.23568
G1 X8.791 Y-14.205 E0.06391
G1 X5.791 Y-14.205 E0.08659
G1 X5.791 Y-17.991 E0.10927
G1 X9.577 Y-17.991 E0.10927
G1 X9.577 Y-0.511 E0.50452
G1 X9.934 Y-0.511 F15000.000
G1 X9.934 Y21.152 E0.62525 F2400.000
G1 X5.434 Y21.152 E0.12988 F2400.000
G1 X5.434 Y19.252 E0.05484
G1 X8.434 Y19.252 E0.08659
G1 X8.434 Y17.752 E0.04329
G1 X0.268 Y17.752 E0.23568
G1 X0.268 Y16.252 E0.04329
G1 X8.434 Y16.252 E0.23568
G1 X8.434 Y8.552 E0.22224
G1 X0.268 Y8.552 E0.23568
G1 X0.268 Y7.052 E0.04329
G1 X8.434 Y7.052 E0.23568
G1 X8.434 Y5.552 E0.04329
G1 X5.434 Y5.552 E0.08659
G1 X5.434 Y-5.348 E0.31460
G1 X8.434 Y-5.348 E0.08659
G1 X8.434 Y-6.848 E0.04329
G1 X0.268 Y-6.848 E0.23568
G1 X0.268 Y-8.348 E0.04329
G1 X8.434 Y-8.348 E0.23568
G1 X8.434 Y-10.848 E0.07216
G1 X0.268 Y-10.848 E0.23568
G1 X0.268 Y-12.348 E0.04329
G1 X8.434 Y-12.348 E0.23568
G1 X8.434 Y-13.848 E0.04329
G1 X5.434 Y-13.848 E0.08659
G1 X5.434 Y-18.348 E0.12988
G1 X9.934 Y-18.348 E0.12988
G1 X9.934 Y-0.571 E0.51309
G1 X9.588 Y-0.311 F15000.000
G1 X9.184 Y-4.813 F15000.000
G1 X9.184 Y-7.384 E0.15735 F2573.073
G1 X9.130 Y-7.598 E0.01352
G1 X9.184 Y-7.813 E0.01352
G1 X9.184 Y-11.384 E0.21854
G1 X9.130 Y-11.598 E0.01352
G1 X9.184 Y-11.813 E0.01352
G1 X9.184 Y-14.384 E0.15735
G1 X9.178 Y-14.592 F15000.000
G1 X9.369 Y-14.783 E0.00797 F2573.073
G1 X9.369 Y-15.298 E0.01515
G1 X8.663 Y-14.592 E0.02940
G1 X7.969 Y-14.413 E0.02107
G1 X9.369 Y-15.813 E0.05827
G1 X9.369 Y-16.328 E0.01515
G1 X7.454 Y-14.413 E0.07970
G1 X6.939 Y-14.413 E0.01515
