; generated by Slic3r 1.2.9 on 2019-12-03 at 11:43:23

; external perimeters extrusion width = 0.40mm
; perimeters extrusion width = 0.40mm
; infill extrusion width = 0.40mm
; solid infill extrusion width = 0.40mm
; top infill extrusion width = 0.40mm

M107
M83
T0
M116
G21 ; set units to millimeters
G90 ; use absolute coordinates
M83 ; use relative distances for extrusion
G1 E-4.20000 F1500.00000
G1 Z1.000 F15000.000
G1 X23.586 Y0.000 F15000.000
G1 Z0.300 F15000.000
G1 E4.20000 F1500.00000
G1 X23.586 Y19.950 E1.53746 F960.000
G1 X23.191 Y21.597 E0.13052
G1 X22.093 Y22.887 E0.13052
G1 X19.950 Y23.586 E0.17373
G1 X-19.950 Y23.586 E3.07491
G1 X-21.597 Y23.191 E0.13052
G1 X-22.887 Y22.093 E0.13052
G1 X-23.586 Y19.950 E0.17373
G1 X-23.586 Y-19.950 E3.07491
G1 X-23.191 Y-21.597 E0.13052
G1 X-22.093 Y-22.887 E0.13052
G1 X-19.950 Y-23.586 E0.17373
G1 X19.950 Y-23.586 E3.07491
G1 X21.597 Y-23.191 E0.13052
G1 X22.887 Y-22.093 E0.13052 F960.000
G1 X23.586 Y-19.950 E0.17373
G1 X23.586 Y-0.060 E1.53283
G1 E-4.20000 F1500.00000
G1 Z1.300 F15000.000
G1 X3.478 Y11.945 F15000.000
G1 Z0.300 F15000.000
G1 E4.20000 F1500.00000
G1 X3.648 Y12.253 E0.02710 F600.000
G1 X3.874 Y12.850 E0.04919
G1 X3.962 Y13.192 E0.02720
G1 X4.058 Y14.000 E0.06271
G1 X3.962 Y14.808 E0.06271
G1 X3.874 Y15.150 E0.02720
G1 X3.648 Y15.747 E0.04919
G1 X3.478 Y16.055 E0.02710
G1 X3.116 Y16.580 E0.04919
G1 X2.875 Y16.836 E0.02710
G1 X2.397 Y17.260 E0.04919
G1 X2.100 Y17.448 E0.02710
G1 X1.513 Y17.756 E0.05111
G1 X0.571 Y18.011 E0.07520
G1 X-0.417 Y18.030 E0.07619
G1 X-1.381 Y17.810 E0.07620
G1 X-2.263 Y17.362 E0.07620
G1 X-3.010 Y16.714 E0.07621
G1 X-3.578 Y15.905 E0.07621
G1 X-3.933 Y14.981 E0.07621
G1 X-4.053 Y14.000 E0.07621
G1 X-3.933 Y13.019 E0.07621
G1 X-3.578 Y12.095 E0.07621
G1 X-3.010 Y11.286 E0.07621
G1 X-2.263 Y10.638 E0.07621
G1 X-1.381 Y10.190 E0.07620
G1 X-0.417 Y9.970 E0.07620 F600.000
G1 X0.571 Y9.989 E0.07619
G1 X1.513 Y10.244 E0.07520
G1 X2.100 Y10.552 E0.05111
G1 X2.397 Y10.740 E0.02710
G1 X2.875 Y11.164 E0.04919
G1 X3.116 Y11.420 E0.02710
G1 X3.444 Y11.896 E0.04456
G1 X2.921 Y12.257 F15000.000
G1 X3.069 Y12.520 E0.02330 F600.000
G1 X3.267 Y13.042 E0.04302
G1 X3.335 Y13.309 E0.02121
G1 X3.417 Y14.000 E0.05363
G1 X3.335 Y14.691 E0.05363
G1 X3.267 Y14.958 E0.02121
G1 X3.069 Y15.480 E0.04302
G1 X2.937 Y15.720 E0.02117
G1 X2.620 Y16.180 E0.04302
G1 X2.432 Y16.380 E0.02117
G1 X2.014 Y16.750 E0.04303
G1 X1.782 Y16.897 E0.02117
G1 X1.280 Y17.161 E0.04371
G1 X0.481 Y17.377 E0.06379
G1 X-0.352 Y17.393 E0.06414
G1 X-1.163 Y17.208 E0.06415
G1 X-1.905 Y16.831 E0.06416
G1 X-2.534 Y16.285 E0.06416
G1 X-3.012 Y15.604 E0.06417
G1 X-3.311 Y14.826 E0.06417
G1 X-3.413 Y14.000 E0.06416
G1 X-3.311 Y13.174 E0.06416
G1 X-3.012 Y12.396 E0.06417
G1 X-2.534 Y11.715 E0.06417
G1 X-1.905 Y11.169 E0.06416
G1 X-1.163 Y10.792 E0.06416
G1 X-0.352 Y10.607 E0.06415 F600.000
G1 X0.481 Y10.623 E0.06414
G1 X1.280 Y10.839 E0.06379
G1 X1.782 Y11.103 E0.04371
G1 X2.014 Y11.250 E0.02117
G1 X2.432 Y11.620 E0.04302
G1 X2.620 Y11.820 E0.02117
G1 X2.887 Y12.207 E0.03626
G1 X3.223 Y12.251 F15000.000
G1 E-4.20000 F1500.00000
G1 Z1.300 F15000.000
G1 X-9.974 Y13.734 F15000.000
G1 Z0.300 F15000.000
G1 E4.20000 F1500.00000
G1 X-9.942 Y14.000 E0.02067 F600.000
G1 X-10.038 Y14.808 E0.06271
G1 X-10.126 Y15.150 E0.02720
G1 X-10.352 Y15.747 E0.04919
G1 X-10.522 Y16.055 E0.02710
G1 X-10.884 Y16.580 E0.04919
G1 X-11.125 Y16.836 E0.02710
G1 X-11.603 Y17.260 E0.04919
G1 X-11.900 Y17.448 E0.02710
G1 X-12.487 Y17.756 E0.05111
G1 X-13.429 Y18.011 E0.07520
G1 X-14.417 Y18.030 E0.07619
G1 X-15.381 Y17.810 E0.07620
G1 X-16.263 Y17.362 E0.07620
G1 X-17.010 Y16.714 E0.07621
G1 X-17.578 Y15.905 E0.07621
G1 X-17.933 Y14.981 E0.07621
G1 X-18.053 Y14.000 E0.07621
G1 X-17.933 Y13.019 E0.07621
G1 X-17.578 Y12.095 E0.07621
G1 X-17.010 Y11.286 E0.07621
G1 X-16.263 Y10.638 E0.07621
G1 X-15.381 Y10.190 E0.07620
G1 X-14.417 Y9.970 E0.07620 F600.000
G1 X-13.429 Y9.989 E0.07619
G1 X-12.487 Y10.244 E0.07520
G1 X-11.900 Y10.552 E0.05111
G1 X-11.603 Y10.740 E0.02710
G1 X-11.125 Y11.164 E0.04919
G1 X-10.884 Y11.420 E0.02710
G1 X-10.522 Y11.945 E0.04919
G1 X-10.352 Y12.253 E0.02710
G1 X-10.126 Y12.850 E0.04919
G1 X-10.038 Y13.192 E0.02720
G1 X-9.981 Y13.674 E0.03742
G1 X-10.612 Y13.749 F15000.000
G1 X-10.583 Y14.000 E0.01948 F600.000
G1 X-10.665 Y14.691 E0.05363
G1 X-10.733 Y14.958 E0.02121
G1 X-10.931 Y15.480 E0.04302
G1 X-11.063 Y15.720 E0.02117
G1 X-11.380 Y16.180 E0.04302
G1 X-11.568 Y16.380 E0.02117
G1 X-11.986 Y16.750 E0.04303
G1 X-12.218 Y16.897 E0.02117
G1 X-12.720 Y17.161 E0.04371
G1 X-13.519 Y17.377 E0.06379
G1 X-14.352 Y17.393 E0.06414
G1 X-15.163 Y17.208 E0.06415
G1 X-15.905 Y16.831 E0.06416
G1 X-16.534 Y16.285 E0.06416
G1 X-17.012 Y15.604 E0.06417
G1 X-17.311 Y14.826 E0.06417
G1 X-17.413 Y14.000 E0.06416
G1 X-17.311 Y13.174 E0.06416
G1 X-17.012 Y12.396 E0.06417
G1 X-16.534 Y11.715 E0.06417
G1 X-15.905 Y11.169 E0.06416
G1 X-15.163 Y10.792 E0.06416
G1 X-14.352 Y10.607 E0.06415 F600.000
G1 X-13.519 Y10.623 E0.06414
G1 X-12.720 Y10.839 E0.06379
G1 X-12.218 Y11.103 E0.04371
G1 X-11.986 Y11.250 E0.02117
G1 X-11.568 Y11.620 E0.04302
G1 X-11.380 Y11.820 E0.02117
G1 X-11.063 Y12.280 E0.04302
G1 X-10.931 Y12.520 E0.02117
G1 X-10.733 Y13.042 E0.04302
G1 X-10.665 Y13.309 E0.02121
G1 X-10.619 Y13.689 E0.02953
G1 X-10.380 Y13.849 F15000.000
G1 X-13.251 Y3.963 F15000.000
G1 X-13.429 Y4.011 E0.01421 F600.000
G1 X-14.417 Y4.030 E0.07619
G1 X-15.381 Y3.810 E0.07620
G1 X-16.263 Y3.362 E0.07620
G1 X-17.010 Y2.714 E0.07621
G1 X-17.578 Y1.905 E0.07621
G1 X-17.933 Y0.981 E0.07621
G1 X-18.053 Y0.000 E0.07621
G1 X-17.933 Y-0.981 E0.07621
G1 X-17.578 Y-1.905 E0.07621
G1 X-17.010 Y-2.714 E0.07621
G1 X-16.263 Y-3.362 E0.07621
G1 X-15.381 Y-3.810 E0.07620
G1 X-14.417 Y-4.030 E0.07620 F600.000
G1 X-13.429 Y-4.011 E0.07619
G1 X-12.487 Y-3.756 E0.07520
G1 X-11.900 Y-3.448 E0.05111
G1 X-11.603 Y-3.260 E0.02710
G1 X-11.125 Y-2.836 E0.04919
G1 X-10.884 Y-2.580 E0.02710
G1 X-10.522 Y-2.055 E0.04919
G1 X-10.352 Y-1.747 E0.02710
G1 X-10.126 Y-1.150 E0.04919
G1 X-10.038 Y-0.808 E0.02720
G1 X-9.942 Y0.000 E0.06271
G1 X-10.038 Y0.808 E0.06271
G1 X-10.126 Y1.150 E0.02720
G1 X-10.352 Y1.747 E0.04919
G1 X-10.522 Y2.055 E0.02710
G1 X-10.884 Y2.580 E0.04919
G1 X-11.125 Y2.836 E0.02710
G1 X-11.603 Y3.260 E0.04919
G1 X-11.900 Y3.448 E0.02710
G1 X-12.487 Y3.756 E0.05111
G1 X-13.193 Y3.947 E0.05636
G1 X-13.359 Y3.334 F15000.000
G1 X-13.519 Y3.377 E0.01281 F600.000
G1 X-14.352 Y3.393 E0.06414
G1 X-15.163 Y3.208 E0.06415
G1 X-15.905 Y2.831 E0.06416
G1 X-16.534 Y2.285 E0.06416
G1 X-17.012 Y1.604 E0.06417
G1 X-17.311 Y0.826 E0.06417
G1 X-17.413 Y0.000 E0.06416
G1 X-17.311 Y-0.826 E0.06416
G1 X-17.012 Y-1.604 E0.06417
G1 X-16.534 Y-2.285 E0.06417
G1 X-15.905 Y-2.831 E0.06416
G1 X-15.163 Y-3.208 E0.06416
G1 X-14.352 Y-3.393 E0.06415 F600.000
G1 X-13.519 Y-3.377 E0.06414
G1 X-12.720 Y-3.161 E0.06379
G1 X-12.218 Y-2.897 E0.04371
G1 X-11.986 Y-2.750 E0.02117
G1 X-11.568 Y-2.380 E0.04302
G1 X-11.380 Y-2.180 E0.02117
G1 X-11.063 Y-1.720 E0.04302
G1 X-10.931 Y-1.480 E0.02117
G1 X-10.733 Y-0.958 E0.04302
G1 X-10.665 Y-0.691 E0.02121
G1 X-10.583 Y0.000 E0.05363
G1 X-10.665 Y0.691 E0.05363
G1 X-10.733 Y0.958 E0.02121
G1 X-10.931 Y1.480 E0.04302
G1 X-11.063 Y1.720 E0.02117
G1 X-11.380 Y2.180 E0.04302
G1 X-11.568 Y2.380 E0.02117
G1 X-11.986 Y2.750 E0.04302
G1 X-12.218 Y2.897 E0.02117
G1 X-12.720 Y3.161 E0.04371
G1 X-13.301 Y3.318 E0.04635
G1 X-13.402 Y3.494 F15000.000
G1 E-4.20000 F1500.00000
G1 Z1.300 F15000.000
G1 X-13.561 Y-9.986 F15000.000
G1 Z0.300 F15000.000
G1 E4.20000 F1500.00000
G1 X-14.417 Y-9.970 E0.06599 F600.000
G1 X-15.381 Y-10.190 E0.07620
G1 X-16.263 Y-10.638 E0.07620
G1 X-17.010 Y-11.286 E0.07621
G1 X-17.578 Y-12.095 E0.07621
G1 X-17.933 Y-13.019 E0.07621
G1 X-18.053 Y-14.000 E0.07621
G1 X-17.933 Y-14.981 E0.07621
G1 X-17.578 Y-15.905 E0.07621
G1 X-17.010 Y-16.714 E0.07621
G1 X-16.263 Y-17.362 E0.07621
G1 X-15.381 Y-17.810 E0.07620
G1 X-14.417 Y-18.030 E0.07620 F600.000
G1 X-13.429 Y-18.011 E0.07619
G1 X-12.487 Y-17.756 E0.07520
G1 X-11.900 Y-17.448 E0.05111
G1 X-11.603 Y-17.260 E0.02710
G1 X-11.125 Y-16.836 E0.04919
G1 X-10.884 Y-16.580 E0.02710
G1 X-10.522 Y-16.055 E0.04919
G1 X-10.352 Y-15.747 E0.02710
G1 X-10.126 Y-15.150 E0.04919
G1 X-10.038 Y-14.808 E0.02720
G1 X-9.942 Y-14.000 E0.06271
G1 X-10.038 Y-13.192 E0.06271
G1 X-10.126 Y-12.850 E0.02720
G1 X-10.352 Y-12.253 E0.04919
G1 X-10.522 Y-11.945 E0.02710
G1 X-10.884 Y-11.420 E0.04919
G1 X-11.125 Y-11.164 E0.02710
G1 X-11.603 Y-10.740 E0.04919
G1 X-11.900 Y-10.552 E0.02710
G1 X-12.487 Y-10.244 E0.05111
G1 X-13.429 Y-9.989 E0.07520
G1 X-13.501 Y-9.987 E0.00558
G1 X-13.519 Y-10.623 F15000.000
G1 X-14.352 Y-10.607 E0.06414 F600.000
G1 X-15.163 Y-10.792 E0.06415
G1 X-15.905 Y-11.169 E0.06416
G1 X-16.534 Y-11.715 E0.06416
G1 X-17.012 Y-12.396 E0.06417
G1 X-17.311 Y-13.174 E0.06417
G1 X-17.413 Y-14.000 E0.06416
G1 X-17.311 Y-14.826 E0.06416
G1 X-17.012 Y-15.604 E0.06417
G1 X-16.534 Y-16.285 E0.06417
G1 X-15.905 Y-16.831 E0.06416
G1 X-15.163 Y-17.208 E0.06416
G1 X-14.352 Y-17.393 E0.06415 F600.000
G1 X-13.519 Y-17.377 E0.06414
G1 X-12.720 Y-17.161 E0.06379
G1 X-12.218 Y-16.897 E0.04371
G1 X-11.986 Y-16.750 E0.02117
G1 X-11.568 Y-16.380 E0.04302
G1 X-11.380 Y-16.180 E0.02117
G1 X-11.063 Y-15.720 E0.04302
G1 X-10.931 Y-15.480 E0.02117
G1 X-10.733 Y-14.958 E0.04302
G1 X-10.665 Y-14.691 E0.02121
G1 X-10.583 Y-14.000 E0.05363
G1 X-10.665 Y-13.309 E0.05363
G1 X-10.733 Y-13.042 E0.02121
G1 X-10.931 Y-12.520 E0.04302
G1 X-11.063 Y-12.280 E0.02117
G1 X-11.380 Y-11.820 E0.04302
G1 X-11.568 Y-11.620 E0.02117
G1 X-11.986 Y-11.250 E0.04302
G1 X-12.218 Y-11.103 E0.02117
G1 X-12.720 Y-10.839 E0.04371
G1 X-13.461 Y-10.639 E0.05916
G1 X-13.683 Y-10.258 F15000.000
G1 X-3.933 Y-13.019 F15000.000
G1 X-4.053 Y-14.000 E0.07621 F600.000
G1 X-3.933 Y-14.981 E0.07621
G1 X-3.578 Y-15.905 E0.07621
G1 X-3.010 Y-16.714 E0.07621
G1 X-2.263 Y-17.362 E0.07621
G1 X-1.381 Y-17.810 E0.07620
G1 X-0.417 Y-18.030 E0.07620 F600.000
G1 X0.571 Y-18.011 E0.07619
G1 X1.513 Y-17.756 E0.07520
G1 X2.100 Y-17.448 E0.05111
G1 X2.397 Y-17.260 E0.02710
G1 X2.875 Y-16.836 E0.04919
G1 X3.116 Y-16.580 E0.02710
G1 X3.478 Y-16.055 E0.04919
G1 X3.648 Y-15.747 E0.02710
G1 X3.874 Y-15.150 E0.04919
G1 X3.962 Y-14.808 E0.02720
G1 X4.058 Y-14.000 E0.06271
G1 X3.962 Y-13.192 E0.06271
G1 X3.874 Y-12.850 E0.02720
G1 X3.648 Y-12.253 E0.04919
G1 X3.478 Y-11.945 E0.02710
G1 X3.116 Y-11.420 E0.04919
G1 X2.875 Y-11.164 E0.02710
G1 X2.397 Y-10.740 E0.04919
G1 X2.100 Y-10.552 E0.02710
G1 X1.513 Y-10.244 E0.05111
G1 X0.571 Y-9.989 E0.07520
G1 X-0.417 Y-9.970 E0.07619
G1 X-1.381 Y-10.190 E0.07620
G1 X-2.263 Y-10.638 E0.07620
G1 X-3.010 Y-11.286 E0.07621
G1 X-3.578 Y-12.095 E0.07621
G1 X-3.911 Y-12.963 E0.07159
G1 X-3.311 Y-13.174 F15000.000
G1 X-3.413 Y-14.000 E0.06416 F600.000
G1 X-3.311 Y-14.826 E0.06416
G1 X-3.012 Y-15.604 E0.06417
G1 X-2.534 Y-16.285 E0.06417
G1 X-1.905 Y-16.831 E0.06416
G1 X-1.163 Y-17.208 E0.06416
G1 X-0.352 Y-17.393 E0.06415 F600.000
G1 X0.481 Y-17.377 E0.06414
G1 X1.280 Y-17.161 E0.06379
G1 X1.782 Y-16.897 E0.04371
G1 X2.014 Y-16.750 E0.02117
G1 X2.432 Y-16.380 E0.04302
G1 X2.620 Y-16.180 E0.02117
G1 X2.937 Y-15.720 E0.04302
G1 X3.069 Y-15.480 E0.02117
G1 X3.267 Y-14.958 E0.04302
G1 X3.335 Y-14.691 E0.02121
G1 X3.417 Y-14.000 E0.05363
G1 X3.335 Y-13.309 E0.05363
G1 X3.267 Y-13.042 E0.02121
G1 X3.069 Y-12.520 E0.04302
G1 X2.937 Y-12.280 E0.02117
G1 X2.620 Y-11.820 E0.04302
G1 X2.432 Y-11.620 E0.02117
G1 X2.014 Y-11.250 E0.04302
G1 X1.782 Y-11.103 E0.02117
G1 X1.280 Y-10.839 E0.04371
G1 X0.481 Y-10.623 E0.06379
G1 X-0.352 Y-10.607 E0.06414
G1 X-1.163 Y-10.792 E0.06415
G1 X-1.905 Y-11.169 E0.06416
G1 X-2.534 Y-11.715 E0.06416
G1 X-3.012 Y-12.396 E0.06417
G1 X-3.290 Y-13.118 E0.05955
G1 X-3.691 Y-13.299 F15000.000
G1 E-4.20000 F1500.00000
G1 Z1.300 F15000.000
G1 X9.947 Y-14.000 F15000.000
G1 Z0.300 F15000.000
G1 E4.20000 F1500.00000
G1 X10.067 Y-14.981 E0.07621 F600.000
G1 X10.422 Y-15.905 E0.07621
G1 X10.990 Y-16.714 E0.07621
G1 X11.737 Y-17.362 E0.07621
G1 X12.619 Y-17.810 E0.07620
G1 X13.583 Y-18.030 E0.07620 F600.000
G1 X14.571 Y-18.011 E0.07619
G1 X15.513 Y-17.756 E0.07520
G1 X16.100 Y-17.448 E0.05111
G1 X16.397 Y-17.260 E0.02710
G1 X16.875 Y-16.836 E0.04919
G1 X17.116 Y-16.580 E0.02710
G1 X17.478 Y-16.055 E0.04919
G1 X17.648 Y-15.747 E0.02710
G1 X17.874 Y-15.150 E0.04919
G1 X17.962 Y-14.808 E0.02720
G1 X18.058 Y-14.000 E0.06271
G1 X17.962 Y-13.192 E0.06271
G1 X17.874 Y-12.850 E0.02720
G1 X17.648 Y-12.253 E0.04919
G1 X17.478 Y-11.945 E0.02710
G1 X17.116 Y-11.420 E0.04919
G1 X16.875 Y-11.164 E0.02710
G1 X16.397 Y-10.740 E0.04919
G1 X16.100 Y-10.552 E0.02710
G1 X15.513 Y-10.244 E0.05111
G1 X14.571 Y-9.989 E0.07520
G1 X13.583 Y-9.970 E0.07619
G1 X12.619 Y-10.190 E0.07620
G1 X11.737 Y-10.638 E0.07620
G1 X10.990 Y-11.286 E0.07621
G1 X10.422 Y-12.095 E0.07621
G1 X10.067 Y-13.019 E0.07621
G1 X9.954 Y-13.940 E0.07158
G1 X10.587 Y-14.000 F15000.000
G1 X10.689 Y-14.826 E0.06416 F600.000
G1 X10.988 Y-15.604 E0.06417
G1 X11.466 Y-16.285 E0.06417
G1 X12.095 Y-16.831 E0.06416
G1 X12.837 Y-17.208 E0.06416
G1 X13.648 Y-17.393 E0.06415 F600.000
G1 X14.481 Y-17.377 E0.06414
G1 X15.280 Y-17.161 E0.06379
G1 X15.782 Y-16.897 E0.04371
G1 X16.014 Y-16.750 E0.02117
G1 X16.432 Y-16.380 E0.04302
G1 X16.620 Y-16.180 E0.02117
G1 X16.937 Y-15.720 E0.04302
G1 X17.069 Y-15.480 E0.02117
G1 X17.267 Y-14.958 E0.04302
G1 X17.335 Y-14.691 E0.02121
G1 X17.417 Y-14.000 E0.05363
G1 X17.335 Y-13.309 E0.05363
G1 X17.267 Y-13.042 E0.02121
G1 X17.069 Y-12.520 E0.04302
G1 X16.937 Y-12.280 E0.02117
G1 X16.620 Y-11.820 E0.04302
G1 X16.432 Y-11.620 E0.02117
G1 X16.014 Y-11.250 E0.04302
G1 X15.782 Y-11.103 E0.02117
G1 X15.280 Y-10.839 E0.04371
G1 X14.481 Y-10.623 E0.06379
G1 X13.648 Y-10.607 E0.06414
G1 X12.837 Y-10.792 E0.06415
G1 X12.095 Y-11.169 E0.06416
G1 X11.466 Y-11.715 E0.06416
G1 X10.988 Y-12.396 E0.06417
G1 X10.689 Y-13.174 E0.06417
G1 X10.595 Y-13.940 E0.05954
G1 X10.249 Y-14.214 F15000.000
G1 X12.900 Y-3.874 F15000.000
G1 X13.583 Y-4.030 E0.05400 F600.000
G1 X14.571 Y-4.011 E0.07619
G1 X15.513 Y-3.756 E0.07520
G1 X16.100 Y-3.448 E0.05111
G1 X16.397 Y-3.260 E0.02710
G1 X16.875 Y-2.836 E0.04919
G1 X17.116 Y-2.580 E0.02710
G1 X17.478 Y-2.055 E0.04919
G1 X17.648 Y-1.747 E0.02709
G1 X17.874 Y-1.150 E0.04919
G1 X17.962 Y-0.808 E0.02720
G1 X18.058 Y0.000 E0.06271
G1 X17.962 Y0.808 E0.06271
G1 X17.874 Y1.150 E0.02720
G1 X17.648 Y1.747 E0.04919
G1 X17.478 Y2.055 E0.02709
G1 X17.116 Y2.580 E0.04919
G1 X16.875 Y2.836 E0.02710
G1 X16.397 Y3.260 E0.04919
G1 X16.100 Y3.448 E0.02710
G1 X15.513 Y3.756 E0.05111
G1 X14.571 Y4.011 E0.07520
G1 X13.583 Y4.030 E0.07619
G1 X12.619 Y3.810 E0.07620
G1 X11.737 Y3.362 E0.07620
G1 X10.990 Y2.714 E0.07621
G1 X10.422 Y1.905 E0.07621
G1 X10.067 Y0.981 E0.07621
G1 X9.947 Y0.000 E0.07621
G1 X10.067 Y-0.981 E0.07621
G1 X10.422 Y-1.905 E0.07621
G1 X10.990 Y-2.714 E0.07621
G1 X11.737 Y-3.362 E0.07621
G1 X12.619 Y-3.810 E0.07620
G1 X12.841 Y-3.861 E0.01758 F600.000
G1 X12.983 Y-3.241 F15000.000
G1 X13.648 Y-3.393 E0.05260 F600.000
G1 X14.481 Y-3.377 E0.06414
G1 X15.280 Y-3.161 E0.06379
G1 X15.782 Y-2.897 E0.04371
G1 X16.014 Y-2.750 E0.02117
G1 X16.432 Y-2.380 E0.04302
G1 X16.620 Y-2.180 E0.02117
G1 X16.937 Y-1.720 E0.04302
G1 X17.069 Y-1.480 E0.02117
G1 X17.267 Y-0.958 E0.04302
G1 X17.335 Y-0.691 E0.02121
G1 X17.417 Y0.000 E0.05363
G1 X17.335 Y0.691 E0.05363
G1 X17.267 Y0.958 E0.02121
G1 X17.069 Y1.480 E0.04302
G1 X16.937 Y1.720 E0.02117
G1 X16.620 Y2.180 E0.04302
G1 X16.432 Y2.380 E0.02117
G1 X16.014 Y2.750 E0.04302
G1 X15.782 Y2.897 E0.02117
G1 X15.280 Y3.161 E0.04371
G1 X14.481 Y3.377 E0.06379
G1 X13.648 Y3.393 E0.06414
G1 X12.837 Y3.208 E0.06415
G1 X12.095 Y2.831 E0.06416
G1 X11.466 Y2.285 E0.06416
G1 X10.988 Y1.604 E0.06417
G1 X10.689 Y0.826 E0.06417
G1 X10.587 Y0.000 E0.06416
G1 X10.689 Y-0.826 E0.06416
G1 X10.988 Y-1.604 E0.06417
G1 X11.466 Y-2.285 E0.06417
G1 X12.095 Y-2.831 E0.06416
G1 X12.837 Y-3.208 E0.06416
G1 X12.925 Y-3.228 E0.00693 F600.000
