; generated by Slic3r 1.2.9 on 2020-04-15 at 17:47:39

; external perimeters extrusion width = 0.40mm
; perimeters extrusion width = 0.40mm
; infill extrusion width = 0.40mm
; solid infill extrusion width = 0.40mm
; top infill extrusion width = 0.40mm

M107
M83
T0
M116
G21 ; set units to millimeters
G90 ; use absolute coordinates
M83 ; use relative distances for extrusion
G1 E-4.20000 F1500.00000
G1 Z1.000 F15000.000
G1 X0.000 Y15.086 F15000.000
G1 Z0.300 F15000.000
G1 E4.20000 F1500.00000
G1 X-12.450 Y15.086 E0.95947 F960.000
G1 X-14.097 Y14.691 E0.13052
G1 X-15.387 Y13.593 E0.13052
G1 X-16.086 Y11.450 E0.17373
G1 X-16.086 Y-11.450 E1.76480
G1 X-15.691 Y-13.097 E0.13052
G1 X-14.593 Y-14.387 E0.13052
G1 X-12.450 Y-15.086 E0.17373
G1 X12.450 Y-15.086 E1.91893
G1 X14.097 Y-14.691 E0.13052
G1 X15.387 Y-13.593 E0.13052 F960.000
G1 X16.086 Y-11.450 E0.17373
G1 X16.086 Y11.450 E1.76480
G1 X15.691 Y13.097 E0.13052
G1 X14.593 Y14.387 E0.13052
G1 X12.450 Y15.086 E0.17373
G1 X0.060 Y15.086 E0.95484
G1 X0.060 Y13.675 F15000.000
G1 X-13.371 Y13.675 E1.03510 F960.000
G1 X-14.675 Y12.371 E0.14203
G1 X-14.675 Y-12.371 E1.90683
G1 X-13.371 Y-13.675 E0.14203
G1 X13.371 Y-13.675 E2.06096
G1 X14.675 Y-12.371 E0.14203
G1 X14.675 Y12.371 E1.90683 F960.000
G1 X13.371 Y13.675 E0.14203
G1 X0.120 Y13.675 E1.02123
G1 X0.120 Y13.039 F15000.000
G1 X-13.108 Y13.039 E1.01944 F960.000
G1 X-14.039 Y12.108 E0.10145
G1 X-14.039 Y-12.108 E1.86625
G1 X-13.108 Y-13.039 E0.10145
G1 X13.108 Y-13.039 E2.02038
G1 X14.039 Y-12.108 E0.10145 F960.000
G1 X14.039 Y12.108 E1.86625
G1 X13.108 Y13.039 E0.10145
G1 X0.180 Y13.039 E0.99632
G1 X0.180 Y12.403 F15000.000
G1 X-12.845 Y12.403 E1.00377 F960.000
G1 X-13.403 Y11.845 E0.06087
G1 X-13.403 Y-11.845 E1.82567
G1 X-12.845 Y-12.403 E0.06087
G1 X12.845 Y-12.403 E1.97980
G1 X13.403 Y-11.845 E0.06087
G1 X13.403 Y11.845 E1.82567 F960.000
G1 X12.845 Y12.403 E0.06087
G1 X0.240 Y12.403 E0.97140
G1 X0.240 Y11.768 F15000.000
G1 X-12.582 Y11.768 E0.98811 F960.000
G1 X-12.768 Y11.582 E0.02029
G1 X-12.768 Y-11.582 E1.78509
G1 X-12.582 Y-11.768 E0.02029
G1 X12.582 Y-11.768 E1.93922
G1 X12.768 Y-11.582 E0.02029 F960.000
G1 X12.768 Y11.582 E1.78509
G1 X12.582 Y11.768 E0.02029
G1 X0.300 Y11.768 E0.94649
G1 X0.300 Y11.100 F15000.000
G1 X-12.100 Y11.100 E0.95561 F720.000
G1 X-12.100 Y-11.100 E1.71085
G1 X12.100 Y-11.100 E1.86499
G1 X12.100 Y11.100 E1.71085
G1 X0.360 Y11.100 E0.90475 F720.000
G1 X0.100 Y10.754 F15000.000
G1 X8.333 Y10.464 F15000.000
G1 X-11.464 Y10.464 E1.52568 F720.000
G1 X-11.464 Y-10.464 E1.61289
G1 X11.464 Y-10.464 E1.76702
G1 X11.464 Y10.464 E1.61289
G1 X8.393 Y10.464 E0.23671 F720.000
G1 X3.590 Y-6.602 F15000.000
G1 X3.320 Y-6.535 E0.02142 F600.000
G1 X3.042 Y-6.535 E0.02142
G1 X2.772 Y-6.602 E0.02142
G1 X2.526 Y-6.731 E0.02142
G1 X2.318 Y-6.915 E0.02142
G1 X2.160 Y-7.144 E0.02142
G1 X2.062 Y-7.404 E0.02142
G1 X2.028 Y-7.680 E0.02142
G1 X2.062 Y-7.956 E0.02142
G1 X2.160 Y-8.216 E0.02142
G1 X2.318 Y-8.445 E0.02142
G1 X2.526 Y-8.629 E0.02142
G1 X2.772 Y-8.758 E0.02142
G1 X3.042 Y-8.825 E0.02142
G1 X3.320 Y-8.825 E0.02142 F600.000
G1 X3.590 Y-8.758 E0.02142
G1 X3.836 Y-8.629 E0.02142
G1 X4.044 Y-8.445 E0.02142
G1 X4.202 Y-8.216 E0.02142
G1 X4.300 Y-7.956 E0.02142
G1 X4.334 Y-7.680 E0.02142
G1 X4.300 Y-7.404 E0.02142
G1 X4.202 Y-7.144 E0.02142
G1 X4.044 Y-6.915 E0.02142
G1 X3.836 Y-6.731 E0.02142
G1 X3.643 Y-6.630 E0.01680
G1 X3.534 Y-6.330 F15000.000
G1 X3.938 Y-6.067 F15000.000
G1 X3.817 Y-6.003 E0.01057 F600.000
G1 X3.397 Y-5.900 E0.03332
G1 X2.965 Y-5.900 E0.03332
G1 X2.545 Y-6.003 E0.03332
G1 X2.162 Y-6.204 E0.03332
G1 X1.839 Y-6.491 E0.03332
G1 X1.593 Y-6.847 E0.03332
G1 X1.440 Y-7.251 E0.03331
G1 X1.388 Y-7.680 E0.03332
G1 X1.440 Y-8.109 E0.03332
G1 X1.593 Y-8.513 E0.03331
G1 X1.839 Y-8.869 E0.03332
G1 X2.162 Y-9.156 E0.03332
G1 X2.545 Y-9.357 E0.03332
G1 X2.965 Y-9.460 E0.03332
G1 X3.397 Y-9.460 E0.03332 F600.000
G1 X3.817 Y-9.357 E0.03332
G1 X4.200 Y-9.156 E0.03332
G1 X4.523 Y-8.869 E0.03331
G1 X4.769 Y-8.513 E0.03332
G1 X4.922 Y-8.109 E0.03332
G1 X4.974 Y-7.680 E0.03332
G1 X4.922 Y-7.251 E0.03331
G1 X4.769 Y-6.847 E0.03332
G1 X4.523 Y-6.491 E0.03332
G1 X4.200 Y-6.204 E0.03332
G1 X3.991 Y-6.095 E0.01812
G1 X-4.465 Y-2.808 F15000.000
G1 X-4.367 Y-2.548 E0.02142 F600.000
G1 X-4.333 Y-2.272 E0.02142
G1 X-4.367 Y-1.996 E0.02142
G1 X-4.465 Y-1.736 E0.02142
G1 X-4.623 Y-1.507 E0.02142
G1 X-4.831 Y-1.323 E0.02142
G1 X-5.077 Y-1.194 E0.02142
G1 X-5.347 Y-1.127 E0.02142
G1 X-5.625 Y-1.127 E0.02142
G1 X-5.895 Y-1.194 E0.02142
G1 X-6.141 Y-1.323 E0.02142
G1 X-6.349 Y-1.507 E0.02142
G1 X-6.507 Y-1.736 E0.02142
G1 X-6.605 Y-1.996 E0.02142
G1 X-6.639 Y-2.272 E0.02142
G1 X-6.605 Y-2.548 E0.02142
G1 X-6.507 Y-2.808 E0.02142
G1 X-6.349 Y-3.037 E0.02142
G1 X-6.141 Y-3.221 E0.02142
G1 X-5.895 Y-3.350 E0.02142
G1 X-5.625 Y-3.417 E0.02142
G1 X-5.347 Y-3.417 E0.02142 F600.000
G1 X-5.077 Y-3.350 E0.02142
G1 X-4.831 Y-3.221 E0.02142
G1 X-4.623 Y-3.037 E0.02142
G1 X-4.499 Y-2.857 E0.01680
G1 X-4.188 Y-2.785 F15000.000
G1 X-3.976 Y-3.218 F15000.000
G1 X-3.898 Y-3.105 E0.01057 F600.000
G1 X-3.745 Y-2.701 E0.03332
G1 X-3.693 Y-2.272 E0.03332
G1 X-3.745 Y-1.843 E0.03332
G1 X-3.898 Y-1.439 E0.03331
G1 X-4.144 Y-1.083 E0.03332
G1 X-4.467 Y-0.796 E0.03332
G1 X-4.850 Y-0.595 E0.03331
G1 X-5.270 Y-0.492 E0.03332
G1 X-5.702 Y-0.492 E0.03332
G1 X-6.122 Y-0.595 E0.03332
G1 X-6.505 Y-0.796 E0.03331
G1 X-6.828 Y-1.083 E0.03332
G1 X-7.074 Y-1.439 E0.03332
G1 X-7.227 Y-1.843 E0.03331
G1 X-7.279 Y-2.272 E0.03332
G1 X-7.227 Y-2.701 E0.03332
G1 X-7.074 Y-3.105 E0.03332
G1 X-6.828 Y-3.461 E0.03332
G1 X-6.505 Y-3.748 E0.03332
G1 X-6.122 Y-3.949 E0.03332
G1 X-5.702 Y-4.052 E0.03332
G1 X-5.270 Y-4.052 E0.03331 F600.000
G1 X-4.850 Y-3.949 E0.03332
G1 X-4.467 Y-3.748 E0.03332
G1 X-4.144 Y-3.461 E0.03332
G1 X-4.010 Y-3.268 E0.01812
G1 X0.174 Y-0.379 F15000.000
G1 X0.331 Y-0.607 E0.02127 F600.000
G1 X0.539 Y-0.791 E0.02142
G1 X0.785 Y-0.920 E0.02142
G1 X1.055 Y-0.987 E0.02142
G1 X1.333 Y-0.987 E0.02142 F600.000
G1 X1.603 Y-0.920 E0.02142
G1 X1.849 Y-0.791 E0.02142
G1 X2.057 Y-0.607 E0.02142
G1 X2.215 Y-0.378 E0.02142
G1 X2.313 Y-0.118 E0.02142
G1 X2.347 Y0.158 E0.02142
G1 X2.313 Y0.434 E0.02142
G1 X2.215 Y0.694 E0.02142
G1 X2.057 Y0.923 E0.02142
G1 X1.849 Y1.107 E0.02142
G1 X1.603 Y1.236 E0.02142
G1 X1.333 Y1.303 E0.02142
G1 X1.055 Y1.303 E0.02142
G1 X0.785 Y1.236 E0.02142
G1 X0.539 Y1.107 E0.02142
G1 X0.331 Y0.923 E0.02142
G1 X0.173 Y0.694 E0.02142
G1 X0.075 Y0.434 E0.02142
G1 X0.041 Y0.158 E0.02142
G1 X0.075 Y-0.118 E0.02142
G1 X0.153 Y-0.323 E0.01694
G1 X0.036 Y-0.618 F15000.000
G1 X-0.442 Y-0.549 F15000.000
G1 X-0.394 Y-0.675 E0.01042 F600.000
G1 X-0.148 Y-1.031 E0.03332
G1 X0.175 Y-1.318 E0.03332
G1 X0.558 Y-1.519 E0.03332
G1 X0.978 Y-1.622 E0.03332
G1 X1.410 Y-1.622 E0.03332 F600.000
G1 X1.830 Y-1.519 E0.03332
G1 X2.213 Y-1.318 E0.03332
G1 X2.536 Y-1.031 E0.03332
G1 X2.782 Y-0.675 E0.03332
G1 X2.935 Y-0.271 E0.03331
G1 X2.987 Y0.158 E0.03332
G1 X2.935 Y0.587 E0.03332
G1 X2.782 Y0.991 E0.03331
G1 X2.536 Y1.347 E0.03332
G1 X2.213 Y1.634 E0.03332
G1 X1.830 Y1.835 E0.03331
G1 X1.410 Y1.938 E0.03332
G1 X0.978 Y1.938 E0.03332
G1 X0.558 Y1.835 E0.03332
G1 X0.175 Y1.634 E0.03331
G1 X-0.148 Y1.347 E0.03332
G1 X-0.394 Y0.991 E0.03332
G1 X-0.547 Y0.587 E0.03331
G1 X-0.599 Y0.158 E0.03332
G1 X-0.547 Y-0.271 E0.03332
G1 X-0.463 Y-0.493 E0.01827
G1 X-1.120 Y2.172 F15000.000
G1 X-0.954 Y2.213 E0.01315 F600.000
G1 X-0.708 Y2.342 E0.02142
G1 X-0.500 Y2.526 E0.02142
G1 X-0.342 Y2.755 E0.02142
G1 X-0.244 Y3.015 E0.02142
G1 X-0.210 Y3.291 E0.02142
G1 X-0.244 Y3.567 E0.02142
G1 X-0.342 Y3.827 E0.02142
G1 X-0.500 Y4.056 E0.02142
G1 X-0.708 Y4.240 E0.02142
G1 X-0.954 Y4.369 E0.02142
G1 X-1.224 Y4.436 E0.02142
G1 X-1.502 Y4.436 E0.02142
G1 X-1.772 Y4.369 E0.02142
G1 X-2.018 Y4.240 E0.02142
G1 X-2.226 Y4.056 E0.02142
G1 X-2.384 Y3.827 E0.02142
G1 X-2.482 Y3.567 E0.02142
G1 X-2.516 Y3.291 E0.02142
G1 X-2.482 Y3.015 E0.02142
G1 X-2.384 Y2.755 E0.02142
G1 X-2.226 Y2.526 E0.02142
G1 X-2.018 Y2.342 E0.02142
G1 X-1.772 Y2.213 E0.02142
G1 X-1.502 Y2.146 E0.02142
G1 X-1.178 Y2.158 E0.02497 F600.000
G1 X-1.009 Y2.042 F15000.000
G1 X-1.026 Y1.541 F15000.000
G1 X-0.727 Y1.614 E0.02373 F600.000
G1 X-0.344 Y1.815 E0.03332
G1 X-0.021 Y2.102 E0.03332
G1 X0.225 Y2.458 E0.03332
G1 X0.378 Y2.862 E0.03331
G1 X0.430 Y3.291 E0.03332
G1 X0.378 Y3.720 E0.03332
G1 X0.225 Y4.124 E0.03332
G1 X-0.021 Y4.480 E0.03332
G1 X-0.344 Y4.767 E0.03332
G1 X-0.727 Y4.968 E0.03331
G1 X-1.147 Y5.071 E0.03332
G1 X-1.579 Y5.071 E0.03332
G1 X-1.999 Y4.968 E0.03332
G1 X-2.382 Y4.767 E0.03331
G1 X-2.705 Y4.480 E0.03332
G1 X-2.951 Y4.124 E0.03332
G1 X-3.104 Y3.720 E0.03331
G1 X-3.156 Y3.291 E0.03332
G1 X-3.104 Y2.862 E0.03332
G1 X-2.951 Y2.458 E0.03332
G1 X-2.705 Y2.102 E0.03332
G1 X-2.382 Y1.815 E0.03332
G1 X-1.999 Y1.614 E0.03332
G1 X-1.579 Y1.511 E0.03332
G1 X-1.147 Y1.511 E0.03331 F600.000
G1 X-1.084 Y1.526 E0.00497
G1 X-3.507 Y3.745 F15000.000
G1 X-11.079 Y-3.827 E0.83220 F960.000
G1 X-11.079 Y-4.734 E0.07044
G1 X-3.477 Y2.868 E0.83547
G1 X-3.202 Y2.236 E0.05354
G1 X-5.545 Y-0.106 E0.25748
G1 X-4.782 Y-0.249 E0.06037
G1 X-2.793 Y1.739 E0.21852
G1 X-2.258 Y1.368 E0.05063
G1 X-4.210 Y-0.584 E0.21452
G1 X-3.765 Y-1.046 E0.04982
G1 X-1.577 Y1.143 E0.24050
G1 X-0.894 Y0.919 E0.05584
G1 X-3.452 Y-1.639 E0.28110
G1 X-3.305 Y-2.398 E0.06010
G1 X-0.948 Y-0.041 E0.25901
G1 X-0.740 Y-0.740 E0.05663
G1 X-10.079 Y-10.079 E1.02639
G1 X-9.173 Y-10.079 E0.07044
G1 X-0.369 Y-1.276 E0.96747
G1 X0.135 Y-1.678 E0.05012
G1 X-8.266 Y-10.079 E0.92324
G1 X-7.360 Y-10.079 E0.07044
G1 X0.779 Y-1.941 E0.89440
G1 X1.621 Y-2.004 E0.06569
G1 X-6.453 Y-10.079 E0.88742
G1 X-5.547 Y-10.079 E0.07044
G1 X11.079 Y6.547 E1.82719
G1 X11.079 Y5.640 E0.07044
G1 X-4.640 Y-10.079 E1.72757
G1 X-3.734 Y-10.079 E0.07044
G1 X11.079 Y4.734 E1.62795
G1 X11.079 Y3.827 E0.07044
G1 X-2.827 Y-10.079 E1.52833
G1 X-1.921 Y-10.079 E0.07044
G1 X1.052 Y-7.106 E0.32672
G1 X1.695 Y-9.182 F15000.000
G1 X0.798 Y-10.079 E0.09853 F960.000
G1 X-0.108 Y-10.079 E0.07044
G1 X1.299 Y-8.672 E0.15460
G1 X1.055 Y-8.010 E0.05488
G1 X-1.015 Y-10.079 E0.22743
G1 X2.603 Y-5.555 F15000.000
G1 X11.079 Y2.921 E0.93150 F960.000
G1 X11.079 Y2.015 E0.07044
G1 X3.506 Y-5.559 E0.83232
G1 X4.166 Y-5.805 E0.05478
G1 X11.079 Y1.108 E0.75972
G1 X11.079 Y0.202 E0.07044
G1 X4.684 Y-6.193 E0.70277
G1 X5.077 Y-6.707 E0.05026
G1 X11.079 Y-0.705 E0.65966
G1 X11.079 Y-1.611 E0.07044
G1 X5.311 Y-7.380 E0.63395
G1 X5.306 Y-8.291 E0.07083
G1 X11.079 Y-2.518 E0.63450
G1 X11.079 Y-3.424 E0.07044
G1 X4.797 Y-9.706 E0.69036
G1 X5.331 Y-10.079 E0.05058
G1 X11.079 Y-4.331 E0.63175
G1 X11.079 Y-5.237 E0.07044
G1 X6.237 Y-10.079 E0.53213
G1 X7.144 Y-10.079 E0.07044
G1 X11.079 Y-6.144 E0.43251
G1 X11.079 Y-7.050 E0.07044
G1 X8.050 Y-10.079 E0.33289
G1 X8.956 Y-10.079 E0.07044
G1 X11.079 Y-7.956 E0.23327
G1 X11.079 Y-8.863 E0.07044
G1 X9.863 Y-10.079 E0.13365
G1 X10.769 Y-10.079 E0.07044
G1 X11.079 Y-9.769 E0.03403
G1 X11.079 Y7.453 F15000.000
G1 X3.339 Y-0.287 E0.85066 F960.000
G1 X3.306 Y0.586 E0.06793
G1 X11.079 Y8.360 E0.85428
G1 X11.079 Y9.266 E0.07044
G1 X3.030 Y1.217 E0.88458
G1 X2.620 Y1.714 E0.05004
G1 X10.985 Y10.079 E0.91936
G1 X10.079 Y10.079 E0.07044
G1 X2.084 Y2.084 E0.87871
G1 X1.402 Y2.308 E0.05579
G1 X9.172 Y10.079 E0.85404
G1 X8.266 Y10.079 E0.07044
G1 X0.730 Y2.543 E0.82825
G1 X0.778 Y3.497 E0.07429
G1 X7.360 Y10.079 E0.72333
G1 X6.453 Y10.079 E0.07044
G1 X0.569 Y4.194 E0.64672
G1 X0.196 Y4.729 E0.05060
G1 X5.547 Y10.079 E0.58802
G1 X4.640 Y10.079 E0.07044
G1 X-0.309 Y5.130 E0.54390
G1 X-0.954 Y5.391 E0.05409
G1 X3.734 Y10.079 E0.51518
G1 X2.827 Y10.079 E0.07044
G1 X-1.801 Y5.451 E0.50865
G1 X1.921 Y10.079 F15000.000
G1 X-11.079 Y-2.921 E1.42871 F960.000
G1 X-11.079 Y-2.014 E0.07044
G1 X1.014 Y10.079 E1.32909
G1 X0.108 Y10.079 E0.07044
G1 X-11.079 Y-1.108 E1.22947
G1 X-11.079 Y-0.202 E0.07044
G1 X-0.798 Y10.079 E1.12985
G1 X-1.705 Y10.079 E0.07044
G1 X-11.079 Y0.705 E1.03023
G1 X-11.079 Y1.611 E0.07044
G1 X-2.611 Y10.079 E0.93061
G1 X-3.518 Y10.079 E0.07044
G1 X-11.079 Y2.518 E0.83099
G1 X-11.079 Y3.424 E0.07044
G1 X-4.424 Y10.079 E0.73137
G1 X-5.331 Y10.079 E0.07044
G1 X-11.079 Y4.331 E0.63175
G1 X-11.079 Y5.237 E0.07044
G1 X-6.237 Y10.079 E0.53213
G1 X-7.144 Y10.079 E0.07044
G1 X-11.079 Y6.144 E0.43251
G1 X-11.079 Y7.050 E0.07044
G1 X-8.050 Y10.079 E0.33289
G1 X-8.956 Y10.079 E0.07044
G1 X-11.079 Y7.956 E0.23327
G1 X-11.079 Y8.863 E0.07044
G1 X-9.863 Y10.079 E0.13365
G1 X-10.769 Y10.079 E0.07044
G1 X-11.079 Y9.769 E0.03403
G1 X-7.658 Y-2.220 F15000.000
G1 X-11.079 Y-5.640 E0.37592 F960.000
G1 X-11.079 Y-6.547 E0.07044
G1 X-7.497 Y-2.965 E0.39362
G1 X-7.173 Y-3.547 E0.05178
G1 X-11.079 Y-7.453 E0.42927
G1 X-11.079 Y-8.360 E0.07044
G1 X-6.718 Y-3.999 E0.47922
G1 X-6.128 Y-4.315 E0.05205
G1 X-11.079 Y-9.266 E0.54413
G1 X-10.985 Y-10.079 E0.06359
G1 X-5.344 Y-4.438 E0.62000
G1 X2.107 Y-9.506 F15000.000
G1 X2.416 Y-9.719 E0.02893 F960.000
G1 X2.873 Y-9.958 E0.03974
G1 X2.926 Y-9.962 E0.00413
G1 X3.489 Y-9.958 E0.04339
G1 X3.946 Y-9.719 E0.03974
G1 X4.255 Y-9.506 E0.02893
G1 E-4.20000 F1500.00000
G1 Z1.300 F15000.000
G1 X-0.880 Y2.018 F15000.000
G1 Z0.500 F15000.000
G1 E4.20000 F1500.00000
G1 X-0.590 Y2.170 E0.00947 F2400.000
G1 X-0.344 Y2.388 E0.00947
G1 X-0.168 Y2.643 E0.00894
G1 X0.077 Y2.643 E0.00708
G1 X-0.041 Y3.617 E0.02832
G1 X-0.157 Y3.924 E0.00947
G1 X-0.344 Y4.194 E0.00947
G1 X-0.590 Y4.412 E0.00947
G1 X-0.880 Y4.564 E0.00947
G1 X-1.199 Y4.643 E0.00947
G1 X-1.527 Y4.643 E0.00947
G1 X-1.846 Y4.564 E0.00947
G1 X-2.136 Y4.412 E0.00947
G1 X-2.382 Y4.194 E0.00947
G1 X-2.558 Y3.939 E0.00894
G1 X-2.803 Y3.939 E0.00708
G1 X-2.685 Y2.965 E0.02832
G1 X-2.569 Y2.658 E0.00947
G1 X-2.382 Y2.388 E0.00947
G1 X-2.136 Y2.170 E0.00947
G1 X-1.846 Y2.018 E0.00947
G1 X-1.521 Y1.938 E0.00967 F2400.000
G1 X-1.172 Y1.946 E0.01007
G1 X-0.938 Y2.004 E0.00694
G1 X-1.024 Y2.350 F15000.000
G1 X-0.794 Y2.467 E0.00744 F2400.000
G1 X-0.613 Y2.627 E0.00697
G1 X-0.476 Y2.825 E0.00697
G1 X-0.410 Y3.000 E0.00539
G1 X-0.326 Y3.000 E0.00242
G1 X-0.390 Y3.531 E0.01543
G1 X-0.476 Y3.757 E0.00697
G1 X-0.613 Y3.955 E0.00697
G1 X-0.794 Y4.115 E0.00697
G1 X-1.008 Y4.228 E0.00697
G1 X-1.242 Y4.286 E0.00697
G1 X-1.484 Y4.286 E0.00697
G1 X-1.718 Y4.228 E0.00697
G1 X-1.932 Y4.115 E0.00697
G1 X-2.113 Y3.955 E0.00697
G1 X-2.250 Y3.757 E0.00697
G1 X-2.316 Y3.582 E0.00539
G1 X-2.400 Y3.582 E0.00242
G1 X-2.336 Y3.051 E0.01543
G1 X-2.250 Y2.825 E0.00697
G1 X-2.113 Y2.627 E0.00697
G1 X-1.932 Y2.467 E0.00697
G1 X-1.718 Y2.354 E0.00697
G1 X-1.481 Y2.296 E0.00704 F2400.000
G1 X-1.219 Y2.302 E0.00757
G1 X-1.082 Y2.336 E0.00408
G1 X-0.819 Y2.193 F15000.000
G1 X0.175 Y1.061 F15000.000
G1 X-0.012 Y0.791 E0.00947 F2400.000
G1 X-0.128 Y0.484 E0.00947
G1 X-0.168 Y0.158 E0.00947
G1 X-0.128 Y-0.168 E0.00947
G1 X-0.012 Y-0.475 E0.00947
G1 X0.179 Y-0.750 E0.00967
G1 X0.445 Y-0.975 E0.01007
G1 X0.711 Y-1.115 E0.00867
G1 X1.030 Y-1.194 E0.00947
G1 X1.358 Y-1.194 E0.00947 F2400.000
G1 X1.683 Y-1.113 E0.00967
G1 X1.988 Y-0.944 E0.01007
G1 X2.213 Y-0.745 E0.00867
G1 X2.400 Y-0.475 E0.00947
G1 X2.516 Y-0.168 E0.00947
G1 X2.556 Y0.158 E0.00947
G1 X2.516 Y0.484 E0.00947
G1 X2.400 Y0.791 E0.00947
G1 X2.209 Y1.066 E0.00967
G1 X1.943 Y1.291 E0.01007
G1 X1.677 Y1.431 E0.00867
G1 X1.358 Y1.510 E0.00947
G1 X1.030 Y1.510 E0.00947
G1 X0.711 Y1.431 E0.00947
G1 X0.421 Y1.279 E0.00947
G1 X0.220 Y1.101 E0.00774
G1 X0.457 Y0.833 F15000.000
G1 X0.307 Y0.624 E0.00744 F2400.000
G1 X0.221 Y0.398 E0.00697
G1 X0.192 Y0.158 E0.00697
G1 X0.221 Y-0.082 E0.00697
G1 X0.307 Y-0.308 E0.00697
G1 X0.445 Y-0.508 E0.00704
G1 X0.646 Y-0.677 E0.00757
G1 X0.839 Y-0.779 E0.00629
G1 X1.073 Y-0.837 E0.00697
G1 X1.315 Y-0.837 E0.00697 F2400.000
G1 X1.552 Y-0.778 E0.00704
G1 X1.781 Y-0.651 E0.00757
G1 X1.944 Y-0.506 E0.00629
G1 X2.081 Y-0.308 E0.00697
G1 X2.167 Y-0.082 E0.00697
G1 X2.196 Y0.158 E0.00697
G1 X2.167 Y0.398 E0.00697
G1 X2.081 Y0.624 E0.00697
G1 X1.943 Y0.824 E0.00704
G1 X1.742 Y0.993 E0.00757
G1 X1.549 Y1.095 E0.00629
G1 X1.315 Y1.153 E0.00697
G1 X1.073 Y1.153 E0.00697
